!!!!SEGMENT: pl-wumfc--n2100--015_dobrzynski-ignacy-feliks--monbar-czyli-flibustierowie-partytura-fortepianowa-akt-ii-14-chor-baletu.krn
!!!cenid: 18xx:4198
!!!COM: Dobrzyński, Ignacy Feliks
!!!COM-rismID: pe30020642
!!!CDT: 1807/02/15-1867/10/09
!!!CNT: Polish
!!!GTL: Monbar czyli Flibustierowie - partytura fortepianowa
!!!OTL: Akt II - 14. Chór baletu
!!!OMV: 015
!!!PDT: 1863
!!!AGN:
!!!SMS-siglum: PL-Wumfc
!!!SMS-shelfmark: N2100
!!!SMS-shelfwork: 001-015 G
!!!SMS-variant:
!!!SMS-altvar:
!!!NIFC-rismSourceID: 1001123412
!!!NIFC-rismChildID: 1001123412
!!!NIFC-islandoraID: pl-wumfc:1659
!!!URL-pdf-islandora: https://repozytorium.nifc.pl/islandora/object/pl-wumfc%3A1659/datastream/PDF/view
!!!URL-scan: https://polish.musicsources.pl/pl/lokalizacje/galeria/druki-muzyczne/11863/106 @EN{Scan on Polish Music Sources Website} @PL{Skany w portalu Dziedzictwo Muzyki Polskiej w otwartym dostępie}
!!!IIIF:
!!!ONB-nifc: Skany 0106-0109
!!!AIN: 1 bass 2 piano 2 soprn 1 tenor
!!!key: a
**kern	**kern	**fing	**dynam	**kern	**text	**kern	**text	**dynam	**kern	**kern	**text	**dynam
*part6	*part5	*	*part5	*part4	*	*part3	*part3	*part3	*part2	*part1	*part1	*part1
*staff6	*staff5	*	*	*staff4	*	*staff3	*staff3	*	*staff2	*staff1	*staff1	*
*I"PIANO.	*I"PIANO.	*	*	*I"Bassi.	*	*I"Tenori.	*	*	*I"Soprano IIo.	*I"Soprano Io.	*	*
*	*I'	*	*	*I'	*	*I'	*	*	*I'	*I'	*	*
*Ipiano	*Ipiano	*	*	*Ibass	*	*Itenor	*	*	*Isoprn	*Isoprn	*	*
*ICklav	*ICklav	*	*	*ICvox	*	*ICvox	*	*	*ICvox	*ICvox	*	*
*clefF4	*clefG2	*	*	*clefF4	*	*clefG2	*	*	*clefG2	*clefG2	*	*
*	*	*	*	*	*	*ITrd8c12	*	*	*	*	*	*
*k[f#c#]	*k[f#c#]	*	*	*k[f#c#]	*	*k[f#c#]	*	*	*k[f#c#]	*k[f#c#]	*	*
*a:	*a:	*	*	*a:	*	*a:	*	*	*a:	*a:	*	*
*M6/8	*M6/8	*	*	*M6/8	*	*M6/8	*	*	*M6/8	*M6/8	*	*
*>[A,B,B,C,D,D,E,E,F,G,G1,G,G2,H]	*>[A,B,B,C,D,D,E,E,F,G,G1,G,G2,H]	*	*	*>[A,B,B,C,D,D,E,E,F,G,G1,G,G2,H]	*	*>[A,B,B,C,D,D,E,E,F,G,G1,G,G2,H]	*	*	*>[A,B,B,C,D,D,E,E,F,G,G1,G,G2,H]	*>[A,B,B,C,D,D,E,E,F,G,G1,G,G2,H]	*	*
=1	=1	=1	=1	=1	=1	=1	=1	=1	=1	=1	=1	=1
*>A	*>A	*>A	*>A	*>A	*>A	*>A	*>A	*>A	*>A	*>A	*>A	*>A
!	!LO:TX:a:B:t=Allegretto.	!	!LO:DY:b:rj	!	!	!	!	!	!	!	!	!
4AA/	4a 4c# 4A/	.	p	2.r	.	2.r	.	.	2.r	2.r	.	.
8r	8r	.	.	.	.	.	.	.	.	.	.	.
4C#/	4g 4e 4A/	.	.	.	.	.	.	.	.	.	.	.
8r	8r	.	.	.	.	.	.	.	.	.	.	.
=2	=2	=2	=2	=2	=2	=2	=2	=2	=2	=2	=2	=2
4D\	4f# 4d 4A/	.	.	2.r	.	2.r	.	.	2.r	2.r	.	.
8r	8r	.	.	.	.	.	.	.	.	.	.	.
4GG#X/	4b 4fn 4d/	.	.	.	.	.	.	.	.	.	.	.
8r	8r	.	.	.	.	.	.	.	.	.	.	.
=3	=3	=3	=3	=3	=3	=3	=3	=3	=3	=3	=3	=3
4AA/	4e 4d/	.	.	2.r	.	2.r	.	.	2.r	2.r	.	.
8r	8r	.	.	.	.	.	.	.	.	.	.	.
4r	4r	.	.	.	.	.	.	.	.	.	.	.
8r	8r	.	.	.	.	.	.	.	.	.	.	.
=4	=4	=4	=4	=4	=4	=4	=4	=4	=4	=4	=4	=4
4AA 4AAA/	4a 4e 4c#/	.	.	2.r	.	2.r	.	.	2.r	2.r	.	.
8r	8r	.	.	.	.	.	.	.	.	.	.	.
4r	4r	.	.	.	.	.	.	.	.	.	.	.
8r;	8r;	.	.	.	.	.	.	.	.	.	.	.
=5!|:	=5!|:	=5!|:	=5!|:	=5!|:	=5!|:	=5!|:	=5!|:	=5!|:	=5!|:	=5!|:	=5!|:	=5!|:
*>B	*>B	*>B	*>B	*>B	*>B	*>B	*>B	*>B	*>B	*>B	*>B	*>B
8AL 8F# 8D\	4ff#\	.	p	2.r	.	2.r	.	.	2.r	2.r	.	.
!	!LO:TX:b:i:t=ma espress	!	!	!	!	!	!	!	!	!	!	!
8A 8F# 8D\	.	.	.	.	.	.	.	.	.	.	.	.
8AJ 8F# 8D\	8r	.	.	.	.	.	.	.	.	.	.	.
!	!LO:TX:a:t=Ob	!	!	!	!	!	!	!	!	!	!	!
4A 4F# 4D\	(4.aa^<\	.	.	.	.	.	.	.	.	.	.	.
8r	.	.	.	.	.	.	.	.	.	.	.	.
=6	=6	=6	=6	=6	=6	=6	=6	=6	=6	=6	=6	=6
8AL 8F# 8D\	4ff#\)	.	.	2.r	.	2.r	.	.	2.r	2.r	.	.
8A 8F# 8D\	.	.	.	.	.	.	.	.	.	.	.	.
8AJ 8F# 8D\	8r	.	.	.	.	.	.	.	.	.	.	.
4A 4F# 4D\	[4.a^/	.	.	.	.	.	.	.	.	.	.	.
8r	.	.	.	.	.	.	.	.	.	.	.	.
!!LO:LB:g=original
=7	=7	=7	=7	=7	=7	=7	=7	=7	=7	=7	=7	=7
8AL 8F# 8D\	8a\L]	.	.	2.r	.	2.r	.	.	2.r	2.r	.	.
8A 8F# 8D\	8b'\	.	.	.	.	.	.	.	.	.	.	.
8AJ 8F# 8D\	8cc#'\J	.	.	.	.	.	.	.	.	.	.	.
.	(<8qee/	.	.	.	.	.	.	.	.	.	.	.
4A 4F# 4D\	8dd'\L)	.	.	.	.	.	.	.	.	.	.	.
.	8cc#'\	.	.	.	.	.	.	.	.	.	.	.
8r	8dd'\J	.	.	.	.	.	.	.	.	.	.	.
=8	=8	=8	=8	=8	=8	=8	=8	=8	=8	=8	=8	=8
.	(<8qff#/	.	.	.	.	.	.	.	.	.	.	.
8AL 8E 8C# 8AA\	8ee'\L)	.	.	2.r	.	2.r	.	.	2.r	2.r	.	.
8A 8E 8C# 8AA\	8dd#X'\	.	.	.	.	.	.	.	.	.	.	.
8AJ 8E 8C# 8AA\	8ee'\J	.	.	.	.	.	.	.	.	.	.	.
4A 4E 4C# 4AA\	(4aa^<\	.	.	.	.	.	.	.	.	.	.	.
8r	8gg\)	.	.	.	.	.	.	.	.	.	.	.
=9	=9	=9	=9	=9	=9	=9	=9	=9	=9	=9	=9	=9
8AL 8F# 8D\	4ff#\	.	.	2.r	.	2.r	.	.	2.r	2.r	.	.
8A 8F# 8D\	.	.	.	.	.	.	.	.	.	.	.	.
8AJ 8F# 8D\	8r	.	.	.	.	.	.	.	.	.	.	.
4A 4F# 4D\	(4.aa^<\	.	.	.	.	.	.	.	.	.	.	.
8r	.	.	.	.	.	.	.	.	.	.	.	.
=10	=10	=10	=10	=10	=10	=10	=10	=10	=10	=10	=10	=10
8AL 8F# 8D\	4ff#\)	.	.	2.r	.	2.r	.	.	2.r	2.r	.	.
8A 8F# 8D\	.	.	.	.	.	.	.	.	.	.	.	.
8AJ 8F# 8D\	8r	.	.	.	.	.	.	.	.	.	.	.
4A 4F# 4D\	[4.a^/	.	.	.	.	.	.	.	.	.	.	.
8r	.	.	.	.	.	.	.	.	.	.	.	.
=11	=11	=11	=11	=11	=11	=11	=11	=11	=11	=11	=11	=11
8F#L 8D 8AA/	(8a\L]	.	.	2.r	.	2.r	.	.	2.r	2.r	.	.
8F# 8D 8AA/	8dd\	.	.	.	.	.	.	.	.	.	.	.
8F#J 8D 8AA/	8ff#\J)	.	.	.	.	.	.	.	.	.	.	.
!LO:S:s=1:note:problem:note-level slur	!	!	!	!	!	!	!	!	!	!	!	!
!LO:S:s=2:note:problem:note-level slur	!	!	!	!	!	!	!	!	!	!	!	!
!LO:S:s=3:note:problem:note-level slur	!	!	!	!	!	!	!	!	!	!	!	!
(>4.G (>4.C# (<4.AA\	4ff#^<\	.	.	.	.	.	.	.	.	.	.	.
.	8ee\	.	.	.	.	.	.	.	.	.	.	.
=12	=12	=12	=12	=12	=12	=12	=12	=12	=12	=12	=12	=12
!LO:S:s=1:note:problem:note-level slur	!	!	!	!	!	!	!	!	!	!	!	!
!LO:S:s=2:note:problem:note-level slur	!	!	!	!	!	!	!	!	!	!	!	!
!LO:S:s=3:note:problem:note-level slur	!	!	!	!	!	!	!	!	!	!	!	!
8F#L) 8D\))	4dd\	.	.	2.r	.	2.r	.	.	2.r	2.r	.	.
8F#'\	.	.	.	.	.	.	.	.	.	.	.	.
8A'\J	8r	.	.	.	.	.	.	.	.	.	.	.
4D\	4r	.	.	.	.	.	.	.	.	.	.	.
8r	8r	.	.	.	.	.	.	.	.	.	.	.
!!LO:LB:g=original
=13:|!	=13:|!	=13:|!	=13:|!	=13:|!	=13:|!	=13:|!	=13:|!	=13:|!	=13:|!	=13:|!	=13:|!	=13:|!
*>C	*>C	*>C	*>C	*>C	*>C	*>C	*>C	*>C	*>C	*>C	*>C	*>C
8G#X\L	([4.ee\	.	mf	2.r	.	2.r	.	.	2.r	2.r	.	.
8e 8d 8B\	.	.	.	.	.	.	.	.	.	.	.	.
8eJ 8d 8B\	.	.	.	.	.	.	.	.	.	.	.	.
8E\L	8ee\L]	.	.	.	.	.	.	.	.	.	.	.
8e 8d 8B\	8ff#\	.	.	.	.	.	.	.	.	.	.	.
8eJ 8d 8B\	8ee\J)	.	.	.	.	.	.	.	.	.	.	.
=14	=14	=14	=14	=14	=14	=14	=14	=14	=14	=14	=14	=14
.	(<16qqee/LL	.	.	.	.	.	.	.	.	.	.	.
.	16qqdd/JJ	.	.	.	.	.	.	.	.	.	.	.
8A\L	4.cc#^<\)	.	.	2.r	.	2.r	.	.	2.r	2.r	.	.
8e 8c#\	.	.	.	.	.	.	.	.	.	.	.	.
8eJ 8c#\	.	.	.	.	.	.	.	.	.	.	.	.
.	(<16qqcc#/LL	.	.	.	.	.	.	.	.	.	.	.
.	16qqb/JJ	.	.	.	.	.	.	.	.	.	.	.
8E\L	4.a^/)	.	.	.	.	.	.	.	.	.	.	.
8e 8c# 8A\	.	.	.	.	.	.	.	.	.	.	.	.
8eJ 8c# 8A\	.	.	.	.	.	.	.	.	.	.	.	.
=15	=15	=15	=15	=15	=15	=15	=15	=15	=15	=15	=15	=15
8B\L	8g#X'/L	.	.	2.r	.	2.r	.	.	2.r	2.r	.	.
8e 8d 8B\	8f#'/	.	.	.	.	.	.	.	.	.	.	.
8eJ 8d 8B\	8e'/J	.	.	.	.	.	.	.	.	.	.	.
8E\L	4.dd^\	.	.	.	.	.	.	.	.	.	.	.
8e 8d 8B\	.	.	.	.	.	.	.	.	.	.	.	.
8eJ 8d 8B\	.	.	.	.	.	.	.	.	.	.	.	.
=16	=16	=16	=16	=16	=16	=16	=16	=16	=16	=16	=16	=16
8A\L	8cc#'\L	.	<	2.r	.	2.r	.	.	2.r	2.r	.	.
8e 8c#\	8b'\	.	.	.	.	.	.	.	.	.	.	.
8eJ 8c#\	8a'\J	.	[	.	.	.	.	.	.	.	.	.
8AA\L	(8aa\L	.	>	.	.	.	.	.	.	.	.	.
8e 8c# 8A\	8gg#X\	.	.	.	.	.	.	.	.	.	.	.
8eJ 8c# 8A\	8ff#\J)	.	]]	.	.	.	.	.	.	.	.	.
=17	=17	=17	=17	=17	=17	=17	=17	=17	=17	=17	=17	=17
8G#X\L	([4.ee\	.	.	2.r	.	2.r	.	.	2.r	2.r	.	.
8e 8d 8B\	.	.	.	.	.	.	.	.	.	.	.	.
8eJ 8d 8B\	.	.	.	.	.	.	.	.	.	.	.	.
8E\L	8ee\L]	.	.	.	.	.	.	.	.	.	.	.
8e 8d 8B\	8ff#\	.	.	.	.	.	.	.	.	.	.	.
8eJ 8d 8B\	8ee\J)	.	.	.	.	.	.	.	.	.	.	.
=18	=18	=18	=18	=18	=18	=18	=18	=18	=18	=18	=18	=18
.	(<16qqee/LL	.	.	.	.	.	.	.	.	.	.	.
.	16qqdd/JJ	.	.	.	.	.	.	.	.	.	.	.
8A\L	4.cc#^<\)	.	.	2.r	.	2.r	.	.	2.r	2.r	.	.
8e 8c#\	.	.	.	.	.	.	.	.	.	.	.	.
8eJ 8c#\	.	.	.	.	.	.	.	.	.	.	.	.
.	(16qqcc#/LL	.	.	.	.	.	.	.	.	.	.	.
.	16qqb/JJ	.	.	.	.	.	.	.	.	.	.	.
8AA\L	4.a^/)	.	.	.	.	.	.	.	.	.	.	.
8e 8c# 8A\	.	.	.	.	.	.	.	.	.	.	.	.
8eJ 8c# 8A\	.	.	.	.	.	.	.	.	.	.	.	.
!!LO:LB:g=original
=19	=19	=19	=19	=19	=19	=19	=19	=19	=19	=19	=19	=19
8E\L	8g#X'/L	.	.	2.r	.	2.r	.	.	2.r	2.r	.	.
8d 8B 8G#X\	8f#'/	.	.	.	.	.	.	.	.	.	.	.
8dJ 8B 8G#\	8e'/J	.	.	.	.	.	.	.	.	.	.	.
8E\L	(4dd^<\	.	.	.	.	.	.	.	.	.	.	.
8d 8B 8G#\	.	.	.	.	.	.	.	.	.	.	.	.
8dJ 8B 8G#\	8cc#\)	.	.	.	.	.	.	.	.	.	.	.
=20	=20	=20	=20	=20	=20	=20	=20	=20	=20	=20	=20	=20
!LO:TX:a:t=Cor	!	!	!	!	!	!	!	!	!	!	!	!
8c#L 8A'\	4a/	.	.	2.r	.	2.r	.	.	2.r	2.r	.	.
8e 8A'\	.	.	.	.	.	.	.	.	.	.	.	.
!	!	!	!LO:HP:b=2	!	!	!	!	!	!	!	!	!
8f#J 8d'\	8r	.	>	.	.	.	.	.	.	.	.	.
8gL 8e'\	4r	.	.	.	.	.	.	.	.	.	.	.
8f# 8d'\	.	.	.	.	.	.	.	.	.	.	.	.
8eJ 8A'\	8r	.	]]	.	.	.	.	.	.	.	.	.
=21	=21	=21	=21	=21	=21	=21	=21	=21	=21	=21	=21	=21
!	!LO:TX:a:t=Ob	!	!	!	!	!	!	!	!	!	!	!
8dL 8D\	4ff#\	.	p	2.r	.	2.r	.	.	2.r	2.r	.	.
8A 8F# 8D\	.	.	.	.	.	.	.	.	.	.	.	.
8AJ 8F# 8D\	8r	.	.	.	.	.	.	.	.	.	.	.
4A 4F# 4D\	(4.aa^<\	.	.	.	.	.	.	.	.	.	.	.
8r	.	.	.	.	.	.	.	.	.	.	.	.
=22	=22	=22	=22	=22	=22	=22	=22	=22	=22	=22	=22	=22
8AL 8F# 8D\	4ff#\)	.	.	2.r	.	2.r	.	.	2.r	2.r	.	.
8A 8F# 8D\	.	.	.	.	.	.	.	.	.	.	.	.
8AJ 8F# 8D\	8r	.	.	.	.	.	.	.	.	.	.	.
4A 4F# 4D\	[4.a^/	.	.	.	.	.	.	.	.	.	.	.
8r	.	.	.	.	.	.	.	.	.	.	.	.
=23	=23	=23	=23	=23	=23	=23	=23	=23	=23	=23	=23	=23
8AL 8F# 8D\	8a\L]	.	.	2.r	.	2.r	.	.	2.r	2.r	.	.
8A 8F# 8D\	8b'\	.	.	.	.	.	.	.	.	.	.	.
8AJ 8F# 8D\	8cc#'\J	.	.	.	.	.	.	.	.	.	.	.
.	8qee/	.	.	.	.	.	.	.	.	.	.	.
4A 4F# 4D\	8dd'\L	.	.	.	.	.	.	.	.	.	.	.
.	8cc#'\	.	.	.	.	.	.	.	.	.	.	.
8r	8dd'\J	.	.	.	.	.	.	.	.	.	.	.
=24	=24	=24	=24	=24	=24	=24	=24	=24	=24	=24	=24	=24
.	8qff#/	.	.	.	.	.	.	.	.	.	.	.
8AL 8E 8C# 8AA\	8ee'\L	.	.	2.r	.	2.r	.	.	2.r	2.r	.	.
8A 8E 8C# 8AA\	8dd#X'\	.	.	.	.	.	.	.	.	.	.	.
8AJ 8E 8C# 8AA\	8ee'\J	.	.	.	.	.	.	.	.	.	.	.
4A 4E 4C# 4AA\	(4aa^<\	.	.	.	.	.	.	.	.	.	.	.
8r	8gg\)	.	.	.	.	.	.	.	.	.	.	.
!!LO:LB:g=original
=25	=25	=25	=25	=25	=25	=25	=25	=25	=25	=25	=25	=25
8AL 8F# 8D\	4ff#\	.	.	2.r	.	2.r	.	.	2.r	2.r	.	.
!	!	!	!LO:HP:b:t=cres	!	!	!	!	!	!	!	!	!
8A 8F# 8D\	.	.	<	.	.	.	.	.	.	.	.	.
8AJ 8F# 8D\	8r	.	.	.	.	.	.	.	.	.	.	.
!LO:S:s=1:note:problem:note-level slur	!	!	!	!	!	!	!	!	!	!	!	!
!LO:S:s=2:note:problem:note-level slur	!	!	!	!	!	!	!	!	!	!	!	!
!LO:S:s=3:note:problem:note-level slur	!LO:TX:a:t=Vno	!	!	!	!	!	!	!	!	!	!	!
(>4.A (>4.F# [4.D (<4.Cn^<\	(4.aa^<\	.	.	.	.	.	.	.	.	.	.	.
=26	=26	=26	=26	=26	=26	=26	=26	=26	=26	=26	=26	=26
!LO:S:s=1:note:problem:note-level slur	!	!	!	!	!	!	!	!	!	!	!	!
!LO:S:s=2:note:problem:note-level slur	!	!	!	!	!	!	!	!	!	!	!	!
!LO:S:s=3:note:problem:note-level slur	!	!	!	!	!	!	!	!	!	!	!	!
8GL) 8D]) 8BB\)	4gg\)	.	.	2.r	.	2.r	.	.	2.r	2.r	.	.
8G 8D 8BB\	.	.	.	.	.	.	.	.	.	.	.	.
8GJ 8D 8BB\	8r	.	.	.	.	.	.	.	.	.	.	.
!LO:S:s=1:note:problem:note-level slur	!	!	!	!	!	!	!	!	!	!	!	!
!LO:S:s=2:note:problem:note-level slur	!	!	!	!	!	!	!	!	!	!	!	!
!LO:S:s=3:note:problem:note-level slur	!	!	!	!	!	!	!	!	!	!	!	!
(>4.G#X (>4.Fn [4.D (<4.BB-X^<\	[4.ddd [4.dd\	.	.	.	.	.	.	.	.	.	.	.
=27	=27	=27	=27	=27	=27	=27	=27	=27	=27	=27	=27	=27
!LO:S:s=1:note:problem:note-level slur	!	!	!	!	!	!	!	!	!	!	!	!
!LO:S:s=2:note:problem:note-level slur	!	!	!	!	!	!	!	!	!	!	!	!
!LO:S:s=3:note:problem:note-level slur	!	!	!LO:DY:b:rj	!	!	!	!	!	!	!	!	!
8AL) 8F#X) 8D] 8AA\)	8ddd]L 8dd\]	.	f	2.r	.	2.r	.	.	2.r	2.r	.	.
8F# 8D 8AA\	(8ee#X 8e#X\	.	.	.	.	.	.	.	.	.	.	.
8F#J 8D 8AA\	8ff#J 8f#\	.	.	.	.	.	.	.	.	.	.	.
4.G 4.C# 4.AA\	8aaL 8a\	.	.	.	.	.	.	.	.	.	.	.
.	8gg 8g\	.	.	.	.	.	.	.	.	.	.	.
.	8eenJ 8en\	.	.	.	.	.	.	.	.	.	.	.
=28	=28	=28	=28	=28	=28	=28	=28	=28	=28	=28	=28	=28
8F#L 8D\	4dd 4d/)	.	.	2.r	.	2.r	.	.	2.r	2.r	.	.
8F#'\	.	.	.	.	.	.	.	.	.	.	.	.
8A'\J	8r	.	.	.	.	.	.	.	.	.	.	.
4D\	4r	.	.	.	.	.	.	.	.	.	.	.
8r	8r	.	.	.	.	.	.	.	.	.	.	.
=29!|:	=29!|:	=29!|:	=29!|:	=29!|:	=29!|:	=29!|:	=29!|:	=29!|:	=29!|:	=29!|:	=29!|:	=29!|:
*>D	*>D	*>D	*>D	*>D	*>D	*>D	*>D	*>D	*>D	*>D	*>D	*>D
!	!LO:TX:a:rj:t=Flau	!	!	!	!	!	!	!	!	!	!	!
4B 4F# 4D 4BB\	8fff#\L	.	p	2.r	.	2.r	.	.	2.r	2.r	.	.
.	16fff#'\L	.	.	.	.	.	.	.	.	.	.	.
.	16eee'\	.	.	.	.	.	.	.	.	.	.	.
8r	16ddd'\	.	.	.	.	.	.	.	.	.	.	.
.	16ccc#'\JJ	.	.	.	.	.	.	.	.	.	.	.
4B 4F# 4D\	8bb'\L	.	.	.	.	.	.	.	.	.	.	.
.	16bb'\L	.	.	.	.	.	.	.	.	.	.	.
.	16aa'\	.	.	.	.	.	.	.	.	.	.	.
8r	16gg'\	.	.	.	.	.	.	.	.	.	.	.
.	16ff#'\JJ	.	.	.	.	.	.	.	.	.	.	.
!!LO:LB:g=original
=30	=30	=30	=30	=30	=30	=30	=30	=30	=30	=30	=30	=30
!LO:N:vis=4	!LO:TX:a:t=Ob	!	!	!	!	!	!	!	!	!	!	!
4.c# 4.B 4.G 4.E\	8ee'\L	.	.	2.r	.	2.r	.	.	2.r	2.r	.	.
.	16gg'\L	.	.	.	.	.	.	.	.	.	.	.
.	16ff#'\	.	.	.	.	.	.	.	.	.	.	.
.	16ee'\	.	.	.	.	.	.	.	.	.	.	.
.	16dd'\JJ	.	.	.	.	.	.	.	.	.	.	.
4c# 4B 4G 4E\	8cc#'\L	.	.	.	.	.	.	.	.	.	.	.
.	16ee'\L	.	.	.	.	.	.	.	.	.	.	.
.	16dd'\	.	.	.	.	.	.	.	.	.	.	.
8r	16cc#'\	.	.	.	.	.	.	.	.	.	.	.
.	16b'\JJ	.	.	.	.	.	.	.	.	.	.	.
=31	=31	=31	=31	=31	=31	=31	=31	=31	=31	=31	=31	=31
!	!LO:TX:a:t=Clar	!	!	!	!	!	!	!	!	!	!	!
4c# 4A#X 4F#\	8a#X\L	.	.	2.r	.	2.r	.	.	2.r	2.r	.	.
.	16cc#'\L	.	.	.	.	.	.	.	.	.	.	.
.	16b'\	.	.	.	.	.	.	.	.	.	.	.
8r	16a#'\	.	.	.	.	.	.	.	.	.	.	.
.	16g#X'\JJ	.	.	.	.	.	.	.	.	.	.	.
4e 4c# 4A# 4F#\	8f#/L	.	.	.	.	.	.	.	.	.	.	.
.	16f#'/L	.	.	.	.	.	.	.	.	.	.	.
.	16g#'/	.	.	.	.	.	.	.	.	.	.	.
8r	16a#'/	.	.	.	.	.	.	.	.	.	.	.
.	16f#'/JJ	.	.	.	.	.	.	.	.	.	.	.
=32	=32	=32	=32	=32	=32	=32	=32	=32	=32	=32	=32	=32
!	!LO:TX:a:t=Ob	!	!	!	!	!	!	!	!	!	!	!
4d 4B\	8b\L	.	.	2.r	.	2.r	.	.	2.r	2.r	.	.
.	16b'\L	.	.	.	.	.	.	.	.	.	.	.
.	16cc#'\	.	.	.	.	.	.	.	.	.	.	.
8r	16dd'\	.	.	.	.	.	.	.	.	.	.	.
.	16ee'\JJ	.	.	.	.	.	.	.	.	.	.	.
4e 4c# 4A#X 4F#\	8ff#'\L	.	.	.	.	.	.	.	.	.	.	.
!	!LO:TX:a:t=Flau	!	!	!	!	!	!	!	!	!	!	!
.	16ff#'\L	.	.	.	.	.	.	.	.	.	.	.
.	16gg#X'\	.	.	.	.	.	.	.	.	.	.	.
8r	16aa#X'\	.	.	.	.	.	.	.	.	.	.	.
.	16ff#'\JJ	.	.	.	.	.	.	.	.	.	.	.
=33	=33	=33	=33	=33	=33	=33	=33	=33	=33	=33	=33	=33
4d 4B\	8bb\L	.	.	2.r	.	2.r	.	.	2.r	2.r	.	.
.	16fff#'\L	.	.	.	.	.	.	.	.	.	.	.
.	16eee'\	.	.	.	.	.	.	.	.	.	.	.
8r	16ddd'\	.	.	.	.	.	.	.	.	.	.	.
.	16ccc#'\JJ	.	.	.	.	.	.	.	.	.	.	.
4B 4F# 4D\	8bb\L	.	.	.	.	.	.	.	.	.	.	.
.	16bb'\L	.	.	.	.	.	.	.	.	.	.	.
.	16aa'\	.	.	.	.	.	.	.	.	.	.	.
8r	16gg'\	.	.	.	.	.	.	.	.	.	.	.
.	16ff#'\JJ	.	.	.	.	.	.	.	.	.	.	.
!!LO:PB:g=original
=34	=34	=34	=34	=34	=34	=34	=34	=34	=34	=34	=34	=34
4c# 4B 4G 4E\	8ee'\L	.	.	2.r	.	2.r	.	.	2.r	2.r	.	.
!	!LO:TX:a:t=Ob	!	!	!	!	!	!	!	!	!	!	!
.	16gg'\L	.	.	.	.	.	.	.	.	.	.	.
.	16ff#'\	.	.	.	.	.	.	.	.	.	.	.
8r	16ee'\	.	.	.	.	.	.	.	.	.	.	.
.	16dd'\JJ	.	.	.	.	.	.	.	.	.	.	.
4c# 4B 4G 4E\	8cc#\L	.	.	.	.	.	.	.	.	.	.	.
.	16ee'\L	.	.	.	.	.	.	.	.	.	.	.
.	16dd'\	.	.	.	.	.	.	.	.	.	.	.
8r	16cc#'\	.	.	.	.	.	.	.	.	.	.	.
.	16b'\JJ	.	.	.	.	.	.	.	.	.	.	.
=35	=35	=35	=35	=35	=35	=35	=35	=35	=35	=35	=35	=35
4c# 4A#X 4F#\	8a#X/L	.	.	2.r	.	2.r	.	.	2.r	2.r	.	.
*	*8va	*	*	*	*	*	*	*	*	*	*	*
!	!LO:TX:a:t=Vno	!	!	!	!	!	!	!	!	!	!	!
.	16ff#'/L	.	<	.	.	.	.	.	.	.	.	.
.	16gg#X'/	.	.	.	.	.	.	.	.	.	.	.
8r	16aa#'/	.	.	.	.	.	.	.	.	.	.	.
.	16bb'/JJ	.	.	.	.	.	.	.	.	.	.	.
!LO:S:s=1:note:problem:note-level slur	!	!	!	!	!	!	!	!	!	!	!	!
!LO:S:s=2:note:problem:note-level slur	!	!	!	!	!	!	!	!	!	!	!	!
!LO:S:s=3:note:problem:note-level slur	!	!	!	!	!	!	!	!	!	!	!	!
(>4.e (>4.c# (<4.F#\	16ccc#'\LL	.	.	.	.	.	.	.	.	.	.	.
.	16ddd'\	.	.	.	.	.	.	.	.	.	.	.
.	16eee'\	.	.	.	.	.	.	.	.	.	.	.
.	16fff#'\	.	.	.	.	.	.	.	.	.	.	.
.	16ggg#X'\	.	.	.	.	.	.	.	.	.	.	.
.	16aaa#X'\JJ	.	[	.	.	.	.	.	.	.	.	.
=36	=36	=36	=36	=36	=36	=36	=36	=36	=36	=36	=36	=36
!LO:S:s=1:note:problem:note-level slur	!	!	!	!	!	!	!	!	!	!	!	!
!LO:S:s=2:note:problem:note-level slur	!	!	!	!	!	!	!	!	!	!	!	!
!LO:S:s=3:note:problem:note-level slur	!	!	!	!	!	!	!	!	!	!	!	!
8dL) 8B\))	[4.bbb^<\	.	.	2.r	.	2.r	.	.	2.r	2.r	.	.
8D\	.	.	.	.	.	.	.	.	.	.	.	.
8F#\J	.	.	.	.	.	.	.	.	.	.	.	.
4BB/	4bbb\]	.	.	.	.	.	.	.	.	.	.	.
*	*X8va	*	*	*	*	*	*	*	*	*	*	*
8r	8r	.	.	.	.	.	.	.	.	.	.	.
*clefG2	*	*	*	*	*	*	*	*	*	*	*	*
=37:|!|:	=37:|!|:	=37:|!|:	=37:|!|:	=37:|!|:	=37:|!|:	=37:|!|:	=37:|!|:	=37:|!|:	=37:|!|:	=37:|!|:	=37:|!|:	=37:|!|:
*>E	*>E	*>E	*>E	*>E	*>E	*>E	*>E	*>E	*>E	*>E	*>E	*>E
!LO:TX:t=P:problem:klucz po znaku repetycji	!	!	!	!	!	!	!	!	!	!	!	!
!LO:TX:b:rj:t=Fag	!	!	!	!	!	!	!	!	!	!	!	!
!LO:TX:a:t=Cor	!	!	!	!	!	!	!	!	!	!	!	!
(>4.a 4.f# 4.d#X 4.B/	8r	.	.	2.r	.	2.r	.	.	2.r	2.r	.	.
!	!LO:TX:a:t=Flau	!	!	!	!	!	!	!	!	!	!	!
.	16bb'\LL	.	.	.	.	.	.	.	.	.	.	.
.	16ccc#'\	.	.	.	.	.	.	.	.	.	.	.
.	16ddd#X'\	.	.	.	.	.	.	.	.	.	.	.
.	16bb'\JJ	.	.	.	.	.	.	.	.	.	.	.
4.g 4.e/)	8eee\L	.	.	.	.	.	.	.	.	.	.	.
!	!LO:TX:a:t=Ob	!	!	!	!	!	!	!	!	!	!	!
.	16ee'\L	.	.	.	.	.	.	.	.	.	.	.
.	16ff#'\	.	.	.	.	.	.	.	.	.	.	.
.	16gg'\	.	.	.	.	.	.	.	.	.	.	.
.	16ee'\JJ	.	.	.	.	.	.	.	.	.	.	.
!!LO:LB:g=original
=38	=38	=38	=38	=38	=38	=38	=38	=38	=38	=38	=38	=38
(>4.g 4.e 4.c# 4.A/	8cc#\L	.	.	2.r	.	2.r	.	.	2.r	2.r	.	.
!	!LO:TX:a:t=Flau	!	!	!	!	!	!	!	!	!	!	!
.	16aa'\L	.	.	.	.	.	.	.	.	.	.	.
.	16bb'\	.	.	.	.	.	.	.	.	.	.	.
.	16ccc#'\	.	.	.	.	.	.	.	.	.	.	.
.	16aa'\JJ	.	.	.	.	.	.	.	.	.	.	.
4.f# 4.d/)	8ddd\L	.	.	.	.	.	.	.	.	.	.	.
!	!LO:TX:a:t=Clar	!	!	!	!	!	!	!	!	!	!	!
.	16dd'\L	.	.	.	.	.	.	.	.	.	.	.
.	16ee'\	.	.	.	.	.	.	.	.	.	.	.
.	16ff#'\	.	.	.	.	.	.	.	.	.	.	.
.	16dd'\JJ	.	.	.	.	.	.	.	.	.	.	.
*clefF4	*	*	*	*	*	*	*	*	*	*	*	*
=39	=39	=39	=39	=39	=39	=39	=39	=39	=39	=39	=39	=39
(4.f# 4.d 4.B 4.G\	8b\L	.	.	2.r	.	2.r	.	.	2.r	2.r	.	.
!	!LO:TX:a:t=Flau	!	!	!	!	!	!	!	!	!	!	!
.	16gg'\L	.	.	.	.	.	.	.	.	.	.	.
.	16aa'\	.	.	.	.	.	.	.	.	.	.	.
.	16bb'\	.	.	.	.	.	.	.	.	.	.	.
.	16gg'\JJ	.	.	.	.	.	.	.	.	.	.	.
4.e 4.c#\)	8ccc#\L	.	.	.	.	.	.	.	.	.	.	.
!	!LO:TX:a:t=Ob	!	!	!	!	!	!	!	!	!	!	!
.	16cc#'\L	.	.	.	.	.	.	.	.	.	.	.
.	16dd'\	.	.	.	.	.	.	.	.	.	.	.
.	16ee'\	.	.	.	.	.	.	.	.	.	.	.
.	16cc#'\JJ	.	.	.	.	.	.	.	.	.	.	.
=40	=40	=40	=40	=40	=40	=40	=40	=40	=40	=40	=40	=40
(4.e 4.c# 4.A#X 4.F#\	8a#X\L	.	.	2.r	.	2.r	.	.	2.r	2.r	.	.
!	!LO:TX:a:t=Flau	!	!	!	!	!	!	!	!	!	!	!
.	16ff#'\L	.	.	.	.	.	.	.	.	.	.	.
.	16gg#X'\	.	.	.	.	.	.	.	.	.	.	.
.	16aa#X'\	.	.	.	.	.	.	.	.	.	.	.
.	16ff#'\JJ	.	.	.	.	.	.	.	.	.	.	.
4.d 4.B\)	8bb\L	.	.	.	.	.	.	.	.	.	.	.
!	!LO:TX:a:t=Ob	!	!	!	!	!	!	!	!	!	!	!
.	16b'\L	.	.	.	.	.	.	.	.	.	.	.
.	16cc#'\	.	.	.	.	.	.	.	.	.	.	.
.	16dd'\	.	.	.	.	.	.	.	.	.	.	.
.	16b'\JJ	.	.	.	.	.	.	.	.	.	.	.
=41	=41	=41	=41	=41	=41	=41	=41	=41	=41	=41	=41	=41
4cn 4A 4F# 4D\	8dd/L	.	mf	2.r	.	2.r	.	.	2.r	2.r	.	.
!	!LO:TX:a:t=Clar	!	!	!	!	!	!	!	!	!	!	!
.	16d'/L	.	.	.	.	.	.	.	.	.	.	.
.	16e'/	.	.	.	.	.	.	.	.	.	.	.
8r	16f#'/	.	.	.	.	.	.	.	.	.	.	.
.	16d'/JJ	.	.	.	.	.	.	.	.	.	.	.
4B 4G 4D\	8g'/L	.	.	.	.	.	.	.	.	.	.	.
.	16g'/L	.	.	.	.	.	.	.	.	.	.	.
.	16a'/	.	.	.	.	.	.	.	.	.	.	.
8r	16b'/	.	.	.	.	.	.	.	.	.	.	.
.	16g'/JJ	.	.	.	.	.	.	.	.	.	.	.
!!LO:LB:g=original
=42	=42	=42	=42	=42	=42	=42	=42	=42	=42	=42	=42	=42
!LO:N:vis=4.	!	!	!	!	!	!	!	!	!	!	!	!
4cn 4A 4F# 4D\	8dd'\L	.	.	2.r	.	2.r	.	.	2.r	2.r	.	.
.	16dd'\L	.	.	.	.	.	.	.	.	.	.	.
.	16ee'\	.	.	.	.	.	.	.	.	.	.	.
8r	16ff#'\	.	.	.	.	.	.	.	.	.	.	.
.	16dd'\JJ	.	.	.	.	.	.	.	.	.	.	.
4B 4G 4D\	8gg'\L	.	.	.	.	.	.	.	.	.	.	.
.	16gg'\L	.	.	.	.	.	.	.	.	.	.	.
.	16aa'\	.	.	.	.	.	.	.	.	.	.	.
8r	16bb'\	.	.	.	.	.	.	.	.	.	.	.
.	16gg'\JJ	.	.	.	.	.	.	.	.	.	.	.
=43	=43	=43	=43	=43	=43	=43	=43	=43	=43	=43	=43	=43
4cn 4A 4F# 4D\	8ddd\L	.	.	2.r	.	2.r	.	.	2.r	2.r	.	.
*	*8va	*	*	*	*	*	*	*	*	*	*	*
.	16ddd\L	.	.	.	.	.	.	.	.	.	.	.
.	16eee\	.	.	.	.	.	.	.	.	.	.	.
8r	16fff#\	.	.	.	.	.	.	.	.	.	.	.
.	16ddd\JJ	.	.	.	.	.	.	.	.	.	.	.
4B 4G 4D\	8ggg\L	.	.	.	.	.	.	.	.	.	.	.
.	16gg\L	.	.	.	.	.	.	.	.	.	.	.
.	16aa\	.	.	.	.	.	.	.	.	.	.	.
8r	16bb\	.	.	.	.	.	.	.	.	.	.	.
.	16gg\JJ	.	.	.	.	.	.	.	.	.	.	.
=44	=44	=44	=44	=44	=44	=44	=44	=44	=44	=44	=44	=44
4cn 4A 4F# 4D\	8ddd\L	.	.	2.r	.	2.r	.	.	2.r	2.r	.	.
*	*X8va	*	*	*	*	*	*	*	*	*	*	*
.	16dd\L	.	.	.	.	.	.	.	.	.	.	.
.	16ee\	.	.	.	.	.	.	.	.	.	.	.
8r	16ff#\	.	.	.	.	.	.	.	.	.	.	.
.	16dd\JJ	.	.	.	.	.	.	.	.	.	.	.
4B 4G\	8gg\L	.	.	.	.	.	.	.	.	.	.	.
.	(16gg\L	.	.	.	.	.	.	.	.	.	.	.
.	16ff#\	.	.	.	.	.	.	.	.	.	.	.
8r	16gg\	.	.	.	.	.	.	.	.	.	.	.
.	16aa\JJ	.	.	.	.	.	.	.	.	.	.	.
=45	=45	=45	=45	=45	=45	=45	=45	=45	=45	=45	=45	=45
4.d 4.B 4.G\	8bb\L)	.	.	2.r	.	2.r	.	.	2.r	2.r	.	.
.	(16bb\L	.	.	.	.	.	.	.	.	.	.	.
.	16aa#X\	.	.	.	.	.	.	.	.	.	.	.
.	16bb\	.	.	.	.	.	.	.	.	.	.	.
.	16ccc#\JJ	.	.	.	.	.	.	.	.	.	.	.
!	!LO:TX:b:t=cres-:ext=cd:problem:text with extention lines	!	!	!	!	!	!	!	!	!	!	!
4.d#X 4.B 4.G\	8bb\L)	.	<	.	.	.	.	.	.	.	.	.
.	(16bb\L	.	.	.	.	.	.	.	.	.	.	.
.	16aa#\	.	.	.	.	.	.	.	.	.	.	.
.	16bb\	.	.	.	.	.	.	.	.	.	.	.
.	16ccc#\JJ	.	.	.	.	.	.	.	.	.	.	.
!!LO:LB:g=original
=46	=46	=46	=46	=46	=46	=46	=46	=46	=46	=46	=46	=46
4.e 4.B 4.G\	8bb\L)	.	.	2.r	.	2.r	.	.	2.r	2.r	.	.
.	(16bb\L	.	.	.	.	.	.	.	.	.	.	.
.	16aa#X\	.	.	.	.	.	.	.	.	.	.	.
.	16bb\	.	.	.	.	.	.	.	.	.	.	.
.	16ccc#\JJ	.	.	.	.	.	.	.	.	.	.	.
4.e#X 4.B 4.G\	8ddd\L)	.	.	.	.	.	.	.	.	.	.	.
.	(16ddd\L	.	.	.	.	.	.	.	.	.	.	.
.	16ccc#\	.	.	.	.	.	.	.	.	.	.	.
.	16ddd\	.	.	.	.	.	.	.	.	.	.	.
.	16bb\JJ	.	[[	.	.	.	.	.	.	.	.	.
=47	=47	=47	=47	=47	=47	=47	=47	=47	=47	=47	=47	=47
*^	*	*	*	*	*	*	*	*	*	*	*	*
4f# 4A#X 4F#\	4ryy	8fff#\L)	.	f	2.r	.	2.r	.	.	2.r	2.r	.	.
.	.	16ff#'\L	.	.	.	.	.	.	.	.	.	.	.
.	.	16gg#X'\	.	>	.	.	.	.	.	.	.	.	.
*clefG2	*	*	*	*	*	*	*	*	*	*	*	*	*
(8ee/	8cc# [8f#\	16aa#X'\	.	.	.	.	.	.	.	.	.	.	.
.	.	16ff#'\JJ	.	.	.	.	.	.	.	.	.	.	.
4dd#X/	4.b 4.f#\_	8bb'\L	.	.	.	.	.	.	.	.	.	.	.
.	.	16bb'\L	.	.	.	.	.	.	.	.	.	.	.
.	.	16ccc#'\	.	.	.	.	.	.	.	.	.	.	.
8ddn/	.	16ddd'\	.	.	.	.	.	.	.	.	.	.	.
.	.	16bb'\JJ	.	]]	.	.	.	.	.	.	.	.	.
=48	=48	=48	=48	=48	=48	=48	=48	=48	=48	=48	=48	=48	=48
4cc#/)	4a#X 4f#\]	8fff#\	.	.	2.r	.	2.r	.	.	2.r	2.r	.	.
.	.	16f#'/LL	.	.	.	.	.	.	.	.	.	.	.
.	.	16g#X'/	.	.	.	.	.	.	.	.	.	.	.
*clefF4	*	*	*	*	*	*	*	*	*	*	*	*	*
(8e 8c#/	[8F#\	16a#X'/	.	>	.	.	.	.	.	.	.	.	.
.	.	16f#'/JJ	.	.	.	.	.	.	.	.	.	.	.
4d#X 4B/	4.F#\_	8b'\L	.	.	.	.	.	.	.	.	.	.	.
.	.	16b'\L	.	.	.	.	.	.	.	.	.	.	.
.	.	16cc#'\	.	.	.	.	.	.	.	.	.	.	.
8dn/	.	16dd'\	.	.	.	.	.	.	.	.	.	.	.
.	.	16b'\JJ	.	]]	.	.	.	.	.	.	.	.	.
=49	=49	=49	=49	=49	=49	=49	=49	=49	=49	=49	=49	=49	=49
4.c# 4.A#X/)	4.F#\]	8ff#\L	.	p	2.r	.	2.r	.	.	2.r	2.r	.	.
*	*	*8va	*	*	*	*	*	*	*	*	*	*	*
.	.	(16fff#\L	.	.	.	.	.	.	.	.	.	.	.
.	.	16eee#X\	.	.	.	.	.	.	.	.	.	.	.
.	.	16fff#\	.	.	.	.	.	.	.	.	.	.	.
.	.	16gggn\JJ	.	.	.	.	.	.	.	.	.	.	.
(4.e 4.c#/	[4.F#\	8fff#\L)	.	<	.	.	.	.	.	.	.	.	.
*	*	*X8va	*	*	*	*	*	*	*	*	*	*	*
.	.	(16ff#\L	.	.	.	.	.	.	.	.	.	.	.
.	.	16ee#X\	.	.	.	.	.	.	.	.	.	.	.
.	.	16ff#\	.	.	.	.	.	.	.	.	.	.	.
.	.	16gg\JJ	.	[[	.	.	.	.	.	.	.	.	.
!!LO:LB:g=original
=50	=50	=50	=50	=50	=50	=50	=50	=50	=50	=50	=50	=50	=50
4.d 4.B/	4.F#\_	8ff#/L)	.	.	2.r	.	2.r	.	.	2.r	2.r	.	.
.	.	(16f#/L	.	<	.	.	.	.	.	.	.	.	.
.	.	16e#X/	.	.	.	.	.	.	.	.	.	.	.
.	.	16f#/	.	.	.	.	.	.	.	.	.	.	.
.	.	16g/JJ	.	.	.	.	.	.	.	.	.	.	.
8c# 8A#X/)	8F#\]	8f#/L)	.	.	.	.	.	.	.	.	.	.	.
!	!	!	!	!LO:DY:b:rj	!	!	!	!	!	!	!	!	!
16F#'\LL	4ryy	16f#'/L	.	[f	.	.	.	.	.	.	.	.	.
16E'\	.	16en'/	.	.	.	.	.	.	.	.	.	.	.
16D'\	.	16d'/	.	.	.	.	.	.	.	.	.	.	.
16C#'\JJ	.	16c#'/JJ	.	.	.	.	.	.	.	.	.	.	.
*v	*v	*	*	*	*	*	*	*	*	*	*	*	*
=51	=51	=51	=51	=51	=51	=51	=51	=51	=51	=51	=51	=51
4BB/	8B/	.	.	2.r	.	2.r	.	.	2.r	2.r	.	.
.	16fff#'\LL	.	p	.	.	.	.	.	.	.	.	.
.	16eee'\	.	.	.	.	.	.	.	.	.	.	.
8r	16ddd'\	.	.	.	.	.	.	.	.	.	.	.
.	16ccc#'\JJ	.	.	.	.	.	.	.	.	.	.	.
4B 4F# 4D\	8bb'\L	.	.	.	.	.	.	.	.	.	.	.
.	16bb'\L	.	.	.	.	.	.	.	.	.	.	.
.	16aa'\	.	.	.	.	.	.	.	.	.	.	.
8r	16gg'\	.	.	.	.	.	.	.	.	.	.	.
.	16ff#'\JJ	.	.	.	.	.	.	.	.	.	.	.
=52	=52	=52	=52	=52	=52	=52	=52	=52	=52	=52	=52	=52
4c# 4B 4G 4E\	8ee\L	.	.	2.r	.	2.r	.	.	2.r	2.r	.	.
.	16gg'\L	.	.	.	.	.	.	.	.	.	.	.
.	16ff#'\	.	.	.	.	.	.	.	.	.	.	.
8r	16ee'\	.	.	.	.	.	.	.	.	.	.	.
.	16dd'\JJ	.	.	.	.	.	.	.	.	.	.	.
4c# 4B 4G 4E\	8cc#'\L	.	.	.	.	.	.	.	.	.	.	.
.	16ee'\L	.	.	.	.	.	.	.	.	.	.	.
.	16dd'\	.	.	.	.	.	.	.	.	.	.	.
8r	16cc#'\	.	.	.	.	.	.	.	.	.	.	.
.	16b'\JJ	.	.	.	.	.	.	.	.	.	.	.
=53	=53	=53	=53	=53	=53	=53	=53	=53	=53	=53	=53	=53
4c# 4A#X 4F#\	8a#X'/L	.	.	2.r	.	2.r	.	.	2.r	2.r	.	.
.	16cc#'/L	.	.	.	.	.	.	.	.	.	.	.
.	16b'/	.	.	.	.	.	.	.	.	.	.	.
8r	16a#'/	.	.	.	.	.	.	.	.	.	.	.
.	16g#X'/JJ	.	.	.	.	.	.	.	.	.	.	.
4e 4A# 4F#\	8f#'/L	.	.	.	.	.	.	.	.	.	.	.
.	16f#'/L	.	.	.	.	.	.	.	.	.	.	.
.	16g#'/	.	.	.	.	.	.	.	.	.	.	.
8r	16a#'/	.	.	.	.	.	.	.	.	.	.	.
.	16f#'/JJ	.	.	.	.	.	.	.	.	.	.	.
!!LO:LB:g=original
=54	=54	=54	=54	=54	=54	=54	=54	=54	=54	=54	=54	=54
4d 4B\	8b'\L	.	.	2.r	.	2.r	.	.	2.r	2.r	.	.
.	16b'\L	.	.	.	.	.	.	.	.	.	.	.
.	16cc#'\	.	.	.	.	.	.	.	.	.	.	.
8r	16dd'\	.	.	.	.	.	.	.	.	.	.	.
.	16ee'\JJ	.	.	.	.	.	.	.	.	.	.	.
4e 4c# 4F#\	8ff#'\L	.	.	.	.	.	.	.	.	.	.	.
.	16ff#'\L	.	.	.	.	.	.	.	.	.	.	.
.	16gg#X'\	.	.	.	.	.	.	.	.	.	.	.
8r	16aa#X'\	.	.	.	.	.	.	.	.	.	.	.
.	16ff#'\JJ	.	.	.	.	.	.	.	.	.	.	.
=55	=55	=55	=55	=55	=55	=55	=55	=55	=55	=55	=55	=55
4d 4B\	8bb\L	.	.	2.r	.	2.r	.	.	2.r	2.r	.	.
.	16fff#'\L	.	.	.	.	.	.	.	.	.	.	.
.	16eee'\	.	.	.	.	.	.	.	.	.	.	.
8r	16ddd'\	.	.	.	.	.	.	.	.	.	.	.
.	16ccc#'\JJ	.	.	.	.	.	.	.	.	.	.	.
4B 4F# 4D\	8bb'\L	.	.	.	.	.	.	.	.	.	.	.
.	16bb'\L	.	.	.	.	.	.	.	.	.	.	.
.	16aa'\	.	.	.	.	.	.	.	.	.	.	.
8r	16gg'\	.	.	.	.	.	.	.	.	.	.	.
.	16ff#'\JJ	.	.	.	.	.	.	.	.	.	.	.
=56	=56	=56	=56	=56	=56	=56	=56	=56	=56	=56	=56	=56
4c# 4B 4G 4E\	8ee\L	.	.	2.r	.	2.r	.	.	2.r	2.r	.	.
.	16gg'\L	.	.	.	.	.	.	.	.	.	.	.
.	16ff#'\	.	.	.	.	.	.	.	.	.	.	.
8r	16ee'\	.	.	.	.	.	.	.	.	.	.	.
.	16dd'\JJ	.	.	.	.	.	.	.	.	.	.	.
4c# 4B 4G 4E\	8cc#'\L	.	.	.	.	.	.	.	.	.	.	.
.	16ee'\L	.	.	.	.	.	.	.	.	.	.	.
.	16dd'\	.	.	.	.	.	.	.	.	.	.	.
8r	16cc#'\	.	.	.	.	.	.	.	.	.	.	.
.	16b'\JJ	.	.	.	.	.	.	.	.	.	.	.
=57	=57	=57	=57	=57	=57	=57	=57	=57	=57	=57	=57	=57
4c# 4A#X 4F#\	8a#X/L	.	.	2.r	.	2.r	.	.	2.r	2.r	.	.
*	*8va	*	*	*	*	*	*	*	*	*	*	*
.	16ff#'/L	.	<	.	.	.	.	.	.	.	.	.
.	16gg#X'/	.	.	.	.	.	.	.	.	.	.	.
8r	16aa#X'/	.	.	.	.	.	.	.	.	.	.	.
.	16bb'/JJ	.	.	.	.	.	.	.	.	.	.	.
!LO:S:s=1:note:problem:note-level slur	!	!	!	!	!	!	!	!	!	!	!	!
!LO:S:s=2:note:problem:note-level slur	!	!	!	!	!	!	!	!	!	!	!	!
!LO:S:s=3:note:problem:note-level slur	!	!	!	!	!	!	!	!	!	!	!	!
(4.e (4.c# (4.F#\	16ccc#'\LL	.	.	.	.	.	.	.	.	.	.	.
.	16ddd'\	.	.	.	.	.	.	.	.	.	.	.
.	16eee'\	.	.	.	.	.	.	.	.	.	.	.
.	16fff#'\	.	.	.	.	.	.	.	.	.	.	.
.	16ggg#X'\	.	[[	.	.	.	.	.	.	.	.	.
.	16aaa#X'\JJ	.	.	.	.	.	.	.	.	.	.	.
*	*X8va	*	*	*	*	*	*	*	*	*	*	*
!!LO:PB:g=original
=58	=58	=58	=58	=58	=58	=58	=58	=58	=58	=58	=58	=58
*	*8va	*	*	*	*	*	*	*	*	*	*	*
!LO:TX:t=P:problem:brak zakończenia łuków	!	!	!	!	!	!	!	!	!	!	!	!
!LO:S:s=1:note:problem:note-level slur	!	!	!	!	!	!	!	!	!	!	!	!
!LO:S:s=2:note:problem:note-level slur	!	!	!	!	!	!	!	!	!	!	!	!
!LO:S:s=3:note:problem:note-level slur	!	!	!	!	!	!	!	!	!	!	!	!
8dL) 8B\))	[4.bbb^<\	.	.	2.r	.	2.r	.	.	2.r	2.r	.	.
8D\	.	.	.	.	.	.	.	.	.	.	.	.
8F#\J	.	.	.	.	.	.	.	.	.	.	.	.
4BB/	4bbb\]	.	.	.	.	.	.	.	.	.	.	.
*	*X8va	*	*	*	*	*	*	*	*	*	*	*
8r	8r	.	.	.	.	.	.	.	.	.	.	.
=59:|!	=59:|!	=59:|!	=59:|!	=59:|!	=59:|!	=59:|!	=59:|!	=59:|!	=59:|!	=59:|!	=59:|!	=59:|!
*>F	*>F	*>F	*>F	*>F	*>F	*>F	*>F	*>F	*>F	*>F	*>F	*>F
!	!LO:TX:b:i:t=dol	!	!	!	!	!	!	!	!	!	!	!
!	!LO:TX:a:t=Vno	!	!	!	!	!	!	!	!	!	!	!
8cnL 8A 8F# 8D\	4cccn\	.	.	2.r	.	2.r	.	.	2.r	2.r	.	.
8c 8A 8F# 8D\	.	.	.	.	.	.	.	.	.	.	.	.
8cJ 8A 8F# 8D\	8ff#\	.	.	.	.	.	.	.	.	.	.	.
.	8qgg/	.	.	.	.	.	.	.	.	.	.	.
4c 4A 4F# 4D\	(8ff#\L	.	.	.	.	.	.	.	.	.	.	.
.	8ee\	.	.	.	.	.	.	.	.	.	.	.
8r	8ff#\J	.	.	.	.	.	.	.	.	.	.	.
=60	=60	=60	=60	=60	=60	=60	=60	=60	=60	=60	=60	=60
8BL 8G\	(4.aa^<\	.	.	2.r	.	2.r	.	.	2.r	2.r	.	.
8d 8B 8G\	.	.	.	.	.	.	.	.	.	.	.	.
8dJ 8B 8G\	.	.	.	.	.	.	.	.	.	.	.	.
4d 4B 4G\	4gg\))	.	.	.	.	.	.	.	.	.	.	.
8r	8r	.	.	.	.	.	.	.	.	.	.	.
=61	=61	=61	=61	=61	=61	=61	=61	=61	=61	=61	=61	=61
!	!LO:TX:a:t=Ob	!	!	!	!	!	!	!	!	!	!	!
8AL 8F# 8BB\	4aa\	.	.	2.r	.	2.r	.	.	2.r	2.r	.	.
8A 8F# 8BB\	.	.	.	.	.	.	.	.	.	.	.	.
8AJ 8F# 8BB\	(8dd#X\	.	.	.	.	.	.	.	.	.	.	.
.	8qee/	.	.	.	.	.	.	.	.	.	.	.
4A 4F# 4BB\	8dd#\L	.	.	.	.	.	.	.	.	.	.	.
.	8cc#\	.	.	.	.	.	.	.	.	.	.	.
8r	8dd#\J	.	.	.	.	.	.	.	.	.	.	.
=62	=62	=62	=62	=62	=62	=62	=62	=62	=62	=62	=62	=62
8GL 8E\	(4.ff#^<\	.	.	2.r	.	2.r	.	.	2.r	2.r	.	.
8B 8G 8E\	.	.	.	.	.	.	.	.	.	.	.	.
8BJ 8G 8E\	.	.	.	.	.	.	.	.	.	.	.	.
4B 4G 4E\	4ee\))	.	.	.	.	.	.	.	.	.	.	.
8r	8r	.	.	.	.	.	.	.	.	.	.	.
=63	=63	=63	=63	=63	=63	=63	=63	=63	=63	=63	=63	=63
!	!LO:TX:a:t=Vno	!	!	!	!	!	!	!	!	!	!	!
8FnL 8D 8BB 8GG/	[4.ffn^<\	.	mf	2.r	.	2.r	.	.	2.r	2.r	.	.
8F 8D 8BB 8GG/	.	.	.	.	.	.	.	.	.	.	.	.
8FJ 8D 8BB 8GG/	.	.	.	.	.	.	.	.	.	.	.	.
4F 4D 4BB 4GG/	8ff\L]	.	.	.	.	.	.	.	.	.	.	.
.	8ee'\	.	.	.	.	.	.	.	.	.	.	.
8r	8dd'\J	.	.	.	.	.	.	.	.	.	.	.
!!LO:LB:g=original
=64	=64	=64	=64	=64	=64	=64	=64	=64	=64	=64	=64	=64
8EL 8Cn 8GG/	[4.ccn^\	.	.	2.r	.	2.r	.	.	2.r	2.r	.	.
8E 8C 8GG/	.	.	.	.	.	.	.	.	.	.	.	.
8EJ 8C 8GG/	.	.	.	.	.	.	.	.	.	.	.	.
4E 4C 4GG/	8cc\L]	.	.	.	.	.	.	.	.	.	.	.
.	8b'\	.	.	.	.	.	.	.	.	.	.	.
8r	8a'\J	.	.	.	.	.	.	.	.	.	.	.
=65	=65	=65	=65	=65	=65	=65	=65	=65	=65	=65	=65	=65
8FnL 8D 8BB 8GG/	[4.g^>/	.	.	2.r	.	2.r	.	.	2.r	2.r	.	.
8F 8D 8BB 8GG/	.	.	.	.	.	.	.	.	.	.	.	.
8FJ 8D 8BB 8GG/	.	.	.	.	.	.	.	.	.	.	.	.
4F 4D 4BB 4GG/	8g/L]	.	.	.	.	.	.	.	.	.	.	.
.	8f#X'/	.	.	.	.	.	.	.	.	.	.	.
8r	8a'/J	.	.	.	.	.	.	.	.	.	.	.
=66	=66	=66	=66	=66	=66	=66	=66	=66	=66	=66	=66	=66
8EL 8Cn 8GG/	(4g/	.	.	2.r	.	2.r	.	.	2.r	2.r	.	.
8E 8C 8GG/	.	.	.	.	.	.	.	.	.	.	.	.
8EJ 8C 8GG/	8ccn\	.	<	.	.	.	.	.	.	.	.	.
4E 4C 4GG/	8ee\L	.	.	.	.	.	.	.	.	.	.	.
.	8aa\)	.	.	.	.	.	.	.	.	.	.	.
8r	8gg\J	.	[[	.	.	.	.	.	.	.	.	.
=67	=67	=67	=67	=67	=67	=67	=67	=67	=67	=67	=67	=67
8FnL 8D 8BB 8GG/	[4.ffn^\	.	.	2.r	.	2.r	.	.	2.r	2.r	.	.
8F 8D 8BB 8GG/	.	.	.	.	.	.	.	.	.	.	.	.
8FJ 8D 8BB 8GG/	.	.	.	.	.	.	.	.	.	.	.	.
4F 4D 4BB 4GG/	8ff\L]	.	.	.	.	.	.	.	.	.	.	.
.	8ee'\	.	.	.	.	.	.	.	.	.	.	.
8r	8dd'\J	.	.	.	.	.	.	.	.	.	.	.
=68	=68	=68	=68	=68	=68	=68	=68	=68	=68	=68	=68	=68
8EL 8Cn 8GG/	[4.ccn^\	.	.	2.r	.	2.r	.	.	2.r	2.r	.	.
8E 8C 8GG/	.	.	.	.	.	.	.	.	.	.	.	.
8EJ 8C 8GG/	.	.	.	.	.	.	.	.	.	.	.	.
4E 4C 4GG/	8cc\L]	.	.	.	.	.	.	.	.	.	.	.
.	8b'\	.	.	.	.	.	.	.	.	.	.	.
8r	8a'\J	.	.	.	.	.	.	.	.	.	.	.
=69	=69	=69	=69	=69	=69	=69	=69	=69	=69	=69	=69	=69
8FnL 8D 8BB 8GG/	[4.g^>/	.	.	2.r	.	2.r	.	.	2.r	2.r	.	.
8F 8D 8BB 8GG/	.	.	.	.	.	.	.	.	.	.	.	.
8FJ 8D 8BB 8GG/	.	.	.	.	.	.	.	.	.	.	.	.
4F 4D 4BB 4GG/	8g/L]	.	.	.	.	.	.	.	.	.	.	.
.	8f#X'/	.	.	.	.	.	.	.	.	.	.	.
8r	8a'/J	.	.	.	.	.	.	.	.	.	.	.
!!LO:LB:g=original
=70	=70	=70	=70	=70	=70	=70	=70	=70	=70	=70	=70	=70
8EL 8Cn\	(4g/	.	.	2.r	.	2.r	.	.	2.r	2.r	.	.
8G 8E 8C\	.	.	.	.	.	.	.	.	.	.	.	.
8GJ 8E 8C\	8ee\	.	.	.	.	.	.	.	.	.	.	.
4G 4E 4C\	4ccn\)	.	.	.	.	.	.	.	.	.	.	.
8r	8r	.	.	.	.	.	.	.	.	.	.	.
=71	=71	=71	=71	=71	=71	=71	=71	=71	=71	=71	=71	=71
8GL 8E 8C#X 8AA/	[4.gg^<\	.	.	2.r	.	2.r	.	.	2.r	2.r	.	.
8G 8E 8C# 8AA/	.	.	.	.	.	.	.	.	.	.	.	.
8GJ 8E 8C# 8AA/	.	.	.	.	.	.	.	.	.	.	.	.
4G 4E 4C# 4AA/	8gg\L]	.	.	.	.	.	.	.	.	.	.	.
.	8ff#\	.	.	.	.	.	.	.	.	.	.	.
8r	8ee\J	.	.	.	.	.	.	.	.	.	.	.
=72	=72	=72	=72	=72	=72	=72	=72	=72	=72	=72	=72	=72
8F#L 8D 8AA/	[4.dd^<\	.	.	2.r	.	2.r	.	.	2.r	2.r	.	.
8F# 8D 8AA/	.	.	.	.	.	.	.	.	.	.	.	.
8F#J 8D 8AA/	.	.	.	.	.	.	.	.	.	.	.	.
4F# 4D 4AA/	8dd\L]	.	.	.	.	.	.	.	.	.	.	.
.	8cc#\	.	.	.	.	.	.	.	.	.	.	.
8r	8b\J	.	.	.	.	.	.	.	.	.	.	.
=73	=73	=73	=73	=73	=73	=73	=73	=73	=73	=73	=73	=73
8GL 8E 8C# 8AA/	[4.a^/	.	.	2.r	.	2.r	.	.	2.r	2.r	.	.
8G 8E 8C# 8AA/	.	.	.	.	.	.	.	.	.	.	.	.
8GJ 8E 8C# 8AA/	.	.	.	.	.	.	.	.	.	.	.	.
4G 4E 4C# 4AA/	8a/L]	.	.	.	.	.	.	.	.	.	.	.
.	8g#X/	.	.	.	.	.	.	.	.	.	.	.
8r	8b/J	.	.	.	.	.	.	.	.	.	.	.
=74	=74	=74	=74	=74	=74	=74	=74	=74	=74	=74	=74	=74
8F#L 8D 8AA/	(4a/	.	<	2.r	.	2.r	.	.	2.r	2.r	.	.
8F# 8D 8AA/	.	.	.	.	.	.	.	.	.	.	.	.
8F#J 8D 8AA/	8dd\	.	.	.	.	.	.	.	.	.	.	.
4F# 4D 4AA/	8ff#\L	.	[ >	.	.	.	.	.	.	.	.	.
.	8bb\	.	.	.	.	.	.	.	.	.	.	.
8r	8aa\J)	.	]]	.	.	.	.	.	.	.	.	.
=75	=75	=75	=75	=75	=75	=75	=75	=75	=75	=75	=75	=75
8GL 8E 8C# 8AA/	([4.gg^<\	.	.	2.r	.	2.r	.	.	2.r	2.r	.	.
8G 8E 8C# 8AA/	.	.	.	.	.	.	.	.	.	.	.	.
8GJ 8E 8C# 8AA/	.	.	.	.	.	.	.	.	.	.	.	.
4G 4E 4C# 4AA/	8gg\L]	.	.	.	.	.	.	.	.	.	.	.
.	8ff#\	.	.	.	.	.	.	.	.	.	.	.
8r	8ee\J)	.	.	.	.	.	.	.	.	.	.	.
!!LO:LB:g=original
=76	=76	=76	=76	=76	=76	=76	=76	=76	=76	=76	=76	=76
8F#L 8D\	[4.ff#\	.	.	2.r	.	2.r	.	.	2.r	2.r	.	.
8A 8F# 8D\	.	.	.	.	.	.	.	.	.	.	.	.
8AJ 8F# 8D\	.	.	.	.	.	.	.	.	.	.	.	.
4A 4F# 4D\	8ff#\L]	.	.	.	.	.	.	.	.	.	.	.
.	8ee\	.	.	.	.	.	.	.	.	.	.	.
8r	8dd\J	.	.	.	.	.	.	.	.	.	.	.
=77	=77	=77	=77	=77	=77	=77	=77	=77	=77	=77	=77	=77
8G#XL 8D 8BB-X\	[4.ffn\	.	>	2.r	.	2.r	.	.	2.r	2.r	.	.
8G# 8D 8BB-\	.	.	.	.	.	.	.	.	.	.	.	.
8G#J 8D 8BB-\	.	.	.	.	.	.	.	.	.	.	.	.
4G# 4D 4BB-\	8ff\L]	.	.	.	.	.	.	.	.	.	.	.
.	8ee\	.	]	.	.	.	.	.	.	.	.	.
8r	8dd\J	.	.	.	.	.	.	.	.	.	.	.
=78	=78	=78	=78	=78	=78	=78	=78	=78	=78	=78	=78	=78
8AL 8E 8C# 8AA\	[4.cc#\	.	p	2.r	.	2.r	.	.	2.r	2.r	.	.
8A 8E 8C# 8AA\	.	.	.	.	.	.	.	.	.	.	.	.
8AJ 8E 8C# 8AA\	.	.	.	.	.	.	.	.	.	.	.	.
4A 4E 4C# 4AA\	8cc#\L]	.	.	.	.	.	.	.	.	.	.	.
.	8b\	.	.	.	.	.	.	.	.	.	.	.
8r	8a\J	.	.	.	.	.	.	.	.	.	.	.
=79	=79	=79	=79	=79	=79	=79	=79	=79	=79	=79	=79	=79
8G#XL 8D 8BB-X\	[4.ffn\	.	>	2.r	.	2.r	.	.	2.r	2.r	.	.
8G# 8D 8BB-\	.	.	.	.	.	.	.	.	.	.	.	.
8G#J 8D 8BB-\	.	.	.	.	.	.	.	.	.	.	.	.
4G# 4D 4BB-\	8ff\L]	.	.	.	.	.	.	.	.	.	.	.
.	8ee\	.	]	.	.	.	.	.	.	.	.	.
8r	8dd\J	.	.	.	.	.	.	.	.	.	.	.
=80	=80	=80	=80	=80	=80	=80	=80	=80	=80	=80	=80	=80
8AL 8E 8C# 8AA/	4aa 4a\	.	.	2.r	.	2.r	.	.	2.r	2.r	.	.
8C# 8AA/	.	.	.	.	.	.	.	.	.	.	.	.
8C#J 8AA/	8r	.	.	.	.	.	.	.	.	.	.	.
8C#L 8AA/	4.aa 4.a^<\	.	.	.	.	.	.	.	.	.	.	.
8C# 8AA/	.	.	.	.	.	.	.	.	.	.	.	.
!	!LO:TX:b:t=cres-:ext=cd:problem:text with extention lines	!	!	!	!	!	!	!	!	!	!	!
8C#J 8AA/	.	.	<	.	.	.	.	.	.	.	.	.
=81	=81	=81	=81	=81	=81	=81	=81	=81	=81	=81	=81	=81
8DL 8BB 8AA/	4r	.	.	2.r	.	2.r	.	.	2.r	2.r	.	.
8D 8BB 8AA/	.	.	.	.	.	.	.	.	.	.	.	.
8DJ 8BB 8AA/	8r	.	.	.	.	.	.	.	.	.	.	.
8D#XL 8BB#X 8AA/	4.aa 4.a^<\	.	.	.	.	.	.	.	.	.	.	.
8D# 8BB# 8AA/	.	.	.	.	.	.	.	.	.	.	.	.
8D#J 8BB# 8AA/	.	.	.	.	.	.	.	.	.	.	.	.
!!LO:LB:g=original
=82	=82	=82	=82	=82	=82	=82	=82	=82	=82	=82	=82	=82
8EL 8C# 8AA/	4r	.	.	2.r	.	2.r	.	.	2.r	2.r	.	.
8E 8C# 8AA/	.	.	.	.	.	.	.	.	.	.	.	.
8EJ 8C# 8AA/	8r	.	.	.	.	.	.	.	.	.	.	.
8F#L 8D 8AA/	4.aa 4.a\	.	.	.	.	.	.	.	.	.	.	.
8F# 8D 8AA/	.	.	.	.	.	.	.	.	.	.	.	.
8F#J 8D 8AA/	.	.	.	.	.	.	.	.	.	.	.	.
=83	=83	=83	=83	=83	=83	=83	=83	=83	=83	=83	=83	=83
8GL 8E 8AA/	4r	.	.	2.r	.	2.r	.	.	2.r	2.r	.	.
8G 8E 8AA/	.	.	.	.	.	.	.	.	.	.	.	.
8GJ 8E 8AA/	8r	.	.	.	.	.	.	.	.	.	.	.
8EL 8C# 8AA/	(4.aa [4.a\	.	.	.	.	.	.	.	.	.	.	.
8E 8C# 8AA/	.	.	.	.	.	.	.	.	.	.	.	.
8EJ 8C# 8AA/	.	.	[[	.	.	.	.	.	.	.	.	.
=84	=84	=84	=84	=84	=84	=84	=84	=84	=84	=84	=84	=84
8F#L 8D\	4ff# 4a\])	.	f	2.r	.	2.r	.	.	2.r	2.r	.	.
8A 8F# 8D\	.	.	.	.	.	.	.	.	.	.	.	.
8AJ 8F# 8D\	8r	.	.	.	.	.	.	.	.	.	.	.
4A 4F# 4D\	(4.aa^<\	.	p	.	.	.	.	.	.	.	.	.
8r	.	.	.	.	.	.	.	.	.	.	.	.
=85	=85	=85	=85	=85	=85	=85	=85	=85	=85	=85	=85	=85
8AL 8F# 8D\	4ff#\)	.	.	2.r	.	2.r	.	.	2.r	2.r	.	.
8A 8F# 8D\	.	.	.	.	.	.	.	.	.	.	.	.
8AJ 8F# 8D\	8r	.	.	.	.	.	.	.	.	.	.	.
4A 4F# 4D\	[4.a/	.	.	.	.	.	.	.	.	.	.	.
8r	.	.	.	.	.	.	.	.	.	.	.	.
=86	=86	=86	=86	=86	=86	=86	=86	=86	=86	=86	=86	=86
8AL 8F# 8D\	8a\L]	.	.	2.r	.	2.r	.	.	2.r	2.r	.	.
8A 8F# 8D\	8b'\	.	.	.	.	.	.	.	.	.	.	.
8AJ 8F# 8D\	8cc#'\J	.	.	.	.	.	.	.	.	.	.	.
.	8qee/	.	.	.	.	.	.	.	.	.	.	.
4A 4F# 4D\	8dd'\L	.	.	.	.	.	.	.	.	.	.	.
.	8cc#'\	.	.	.	.	.	.	.	.	.	.	.
8r	8dd'\J	.	.	.	.	.	.	.	.	.	.	.
=87	=87	=87	=87	=87	=87	=87	=87	=87	=87	=87	=87	=87
.	8qff#/	.	.	.	.	.	.	.	.	.	.	.
8AL 8E 8C# 8AA\	8ee\L	.	.	2.r	.	2.r	.	.	2.r	2.r	.	.
8A 8E 8C# 8AA\	8dd#X\	.	.	.	.	.	.	.	.	.	.	.
8AJ 8E 8C# 8AA\	8ee\J	.	.	.	.	.	.	.	.	.	.	.
4A 4E 4C# 4AA\	(4aa^<\	.	.	.	.	.	.	.	.	.	.	.
8r	8gg\)	.	.	.	.	.	.	.	.	.	.	.
=88	=88	=88	=88	=88	=88	=88	=88	=88	=88	=88	=88	=88
8AL 8F# 8D\	4ff#\	.	.	2.r	.	2.r	.	.	2.r	2.r	.	.
8A 8F# 8D\	.	.	.	.	.	.	.	.	.	.	.	.
8AJ 8F# 8D\	8r	.	.	.	.	.	.	.	.	.	.	.
4A 4F# 4D\	(4.aa^<\	.	.	.	.	.	.	.	.	.	.	.
8r	.	.	.	.	.	.	.	.	.	.	.	.
!!LO:LB:g=original
=89	=89	=89	=89	=89	=89	=89	=89	=89	=89	=89	=89	=89
8AL 8F# 8D\	4ff#\)	.	.	2.r	.	2.r	.	.	2.r	2.r	.	.
8A 8F# 8D\	.	.	.	.	.	.	.	.	.	.	.	.
8AJ 8F# 8D\	8r	.	.	.	.	.	.	.	.	.	.	.
4A 4F# 4D\	(>[4.a/	.	.	.	.	.	.	.	.	.	.	.
8r	.	.	.	.	.	.	.	.	.	.	.	.
=90	=90	=90	=90	=90	=90	=90	=90	=90	=90	=90	=90	=90
8F#L 8D 8AA/	8a\L]	.	.	2.r	.	2.r	.	.	2.r	2.r	.	.
8F# 8D 8AA/	8dd\	.	.	.	.	.	.	.	.	.	.	.
8F#J 8D 8AA/	8ff#\J)	.	.	.	.	.	.	.	.	.	.	.
!LO:S:s=1:note:problem:note-level slur	!	!	!	!	!	!	!	!	!	!	!	!
!LO:S:s=2:note:problem:note-level slur	!	!	!	!	!	!	!	!	!	!	!	!
!LO:S:s=3:note:problem:note-level slur	!	!	!	!	!	!	!	!	!	!	!	!
(>4.G (>4.C# (<4.AA\	(4ff#^<\	.	.	.	.	.	.	.	.	.	.	.
.	8ee\)	.	.	.	.	.	.	.	.	.	.	.
=91	=91	=91	=91	=91	=91	=91	=91	=91	=91	=91	=91	=91
!LO:S:s=1:note:problem:note-level slur	!	!	!	!	!	!	!	!	!	!	!	!
!LO:S:s=2:note:problem:note-level slur	!	!	!	!	!	!	!	!	!	!	!	!
!LO:S:s=3:note:problem:note-level slur	!	!	!	!	!	!	!	!	!	!	!	!
8F#L) 8D\))	4dd\	.	.	2.r	.	2.r	.	.	2.r	2.r	.	.
8F#\	.	.	.	.	.	.	.	.	.	.	.	.
8A\J	8r	.	.	.	.	.	.	.	.	.	.	.
4D\	4r	.	.	.	.	.	.	.	.	.	.	.
8r	8r	.	.	.	.	.	.	.	.	.	.	.
=92	=92	=92	=92	=92	=92	=92	=92	=92	=92	=92	=92	=92
8G#X\L	([4.ee\	.	mf	2.r	.	2.r	.	.	2.r	2.r	.	.
8e 8d 8B\	.	.	.	.	.	.	.	.	.	.	.	.
8eJ 8d 8B\	.	.	.	.	.	.	.	.	.	.	.	.
8E\L	8ee\L]	.	.	.	.	.	.	.	.	.	.	.
8e 8d 8B\	8ff#\	.	.	.	.	.	.	.	.	.	.	.
8eJ 8d 8B\	8ee\J)	.	.	.	.	.	.	.	.	.	.	.
=93	=93	=93	=93	=93	=93	=93	=93	=93	=93	=93	=93	=93
.	(<16qqee/LL	.	.	.	.	.	.	.	.	.	.	.
.	16qqdd/JJ	.	.	.	.	.	.	.	.	.	.	.
8A\L	4.cc#^<\)	.	.	2.r	.	2.r	.	.	2.r	2.r	.	.
8e 8c#\	.	.	.	.	.	.	.	.	.	.	.	.
8eJ 8c#\	.	.	.	.	.	.	.	.	.	.	.	.
.	(<16qqcc#/LL	.	.	.	.	.	.	.	.	.	.	.
.	16qqb/JJ	.	.	.	.	.	.	.	.	.	.	.
8E\L	4.a^/)	.	.	.	.	.	.	.	.	.	.	.
8e 8c# 8A\	.	.	.	.	.	.	.	.	.	.	.	.
8eJ 8c# 8A\	.	.	.	.	.	.	.	.	.	.	.	.
=94	=94	=94	=94	=94	=94	=94	=94	=94	=94	=94	=94	=94
8B\L	8g#X'/L	.	.	2.r	.	2.r	.	.	2.r	2.r	.	.
8e 8d 8B\	8f#'/	.	.	.	.	.	.	.	.	.	.	.
8eJ 8d 8B\	8e'/J	.	.	.	.	.	.	.	.	.	.	.
8E\L	4.dd^\	.	.	.	.	.	.	.	.	.	.	.
8e 8d 8B\	.	.	.	.	.	.	.	.	.	.	.	.
8eJ 8d 8B\	.	.	.	.	.	.	.	.	.	.	.	.
=95	=95	=95	=95	=95	=95	=95	=95	=95	=95	=95	=95	=95
8A\L	8cc#'\L	.	<	2.r	.	2.r	.	.	2.r	2.r	.	.
8e 8c#\	8b'\	.	.	.	.	.	.	.	.	.	.	.
8eJ 8c#\	8a'\J	.	.	.	.	.	.	.	.	.	.	.
8AA\L	(8aa\L	.	[ >	.	.	.	.	.	.	.	.	.
8e 8c# 8A\	8gg#X\	.	.	.	.	.	.	.	.	.	.	.
8eJ 8c# 8A\	8ff#\J)	.	]]	.	.	.	.	.	.	.	.	.
!!LO:PB:g=original
=96	=96	=96	=96	=96	=96	=96	=96	=96	=96	=96	=96	=96
8G#X\L	([4.ee\	.	.	2.r	.	2.r	.	.	2.r	2.r	.	.
8e 8d 8B\	.	.	.	.	.	.	.	.	.	.	.	.
8eJ 8d 8B\	.	.	.	.	.	.	.	.	.	.	.	.
8E\L	8ee\L]	.	.	.	.	.	.	.	.	.	.	.
8e 8d 8B\	8ff#\	.	.	.	.	.	.	.	.	.	.	.
8eJ 8d 8B\	8ee\J)	.	.	.	.	.	.	.	.	.	.	.
=97	=97	=97	=97	=97	=97	=97	=97	=97	=97	=97	=97	=97
.	(<16qqee/LL	.	.	.	.	.	.	.	.	.	.	.
.	16qqdd/JJ	.	.	.	.	.	.	.	.	.	.	.
8A\L	4.cc#^<\)	.	.	2.r	.	2.r	.	.	2.r	2.r	.	.
8e 8c#\	.	.	.	.	.	.	.	.	.	.	.	.
8eJ 8c#\	.	.	.	.	.	.	.	.	.	.	.	.
.	(<16qqcc#/LL	.	.	.	.	.	.	.	.	.	.	.
.	16qqb/JJ	.	.	.	.	.	.	.	.	.	.	.
8AA\L	4.a^/)	.	.	.	.	.	.	.	.	.	.	.
8e 8c# 8A\	.	.	.	.	.	.	.	.	.	.	.	.
8eJ 8c# 8A\	.	.	.	.	.	.	.	.	.	.	.	.
=98	=98	=98	=98	=98	=98	=98	=98	=98	=98	=98	=98	=98
8E\L	8g#X'/L	.	.	2.r	.	2.r	.	.	2.r	2.r	.	.
8d 8B 8G#X\	8f#'/	.	.	.	.	.	.	.	.	.	.	.
8dJ 8B 8G#\	8e'/J	.	.	.	.	.	.	.	.	.	.	.
8E\L	(4dd^<\	.	.	.	.	.	.	.	.	.	.	.
8d 8B 8G#\	.	.	.	.	.	.	.	.	.	.	.	.
8dJ 8B 8G#\	8cc#\)	.	.	.	.	.	.	.	.	.	.	.
=99	=99	=99	=99	=99	=99	=99	=99	=99	=99	=99	=99	=99
8c#L 8A'\	4a/	.	.	2.r	.	2.r	.	.	2.r	2.r	.	.
8e 8A'\	.	.	.	.	.	.	.	.	.	.	.	.
!	!	!	!LO:HP:b=2	!	!	!	!	!	!	!	!	!
8f#J 8d'\	8r	.	>	.	.	.	.	.	.	.	.	.
8gL 8e'\	4r	.	.	.	.	.	.	.	.	.	.	.
8f# 8d'\	.	.	.	.	.	.	.	.	.	.	.	.
8eJ 8A'\	8r	.	]	.	.	.	.	.	.	.	.	.
=100	=100	=100	=100	=100	=100	=100	=100	=100	=100	=100	=100	=100
!	!LO:TX:a:t=Ob	!	!	!	!	!	!	!	!	!	!	!
8dL 8D\	4ff#\	.	p	2.r	.	2.r	.	.	2.r	2.r	.	.
8A 8F# 8D\	.	.	.	.	.	.	.	.	.	.	.	.
8AJ 8F# 8D\	8r	.	.	.	.	.	.	.	.	.	.	.
4A 4F# 4D\	(4.aa^<\	.	.	.	.	.	.	.	.	.	.	.
8r	.	.	.	.	.	.	.	.	.	.	.	.
=101	=101	=101	=101	=101	=101	=101	=101	=101	=101	=101	=101	=101
8AL 8F# 8D\	4ff#\)	.	.	2.r	.	2.r	.	.	2.r	2.r	.	.
8A 8F# 8D\	.	.	.	.	.	.	.	.	.	.	.	.
8AJ 8F# 8D\	8r	.	.	.	.	.	.	.	.	.	.	.
4A 4F# 4D\	[4.a^/	.	.	.	.	.	.	.	.	.	.	.
8r	.	.	.	.	.	.	.	.	.	.	.	.
!!LO:LB:g=original
=102	=102	=102	=102	=102	=102	=102	=102	=102	=102	=102	=102	=102
8AL 8F# 8D\	8a\L]	.	.	2.r	.	2.r	.	.	2.r	2.r	.	.
8A 8F# 8D\	8b'\	.	.	.	.	.	.	.	.	.	.	.
8AJ 8F# 8D\	8cc#'\J	.	.	.	.	.	.	.	.	.	.	.
.	(8qee/	.	.	.	.	.	.	.	.	.	.	.
4A 4F# 4D\	8dd'\L)	.	.	.	.	.	.	.	.	.	.	.
.	8cc#'\	.	.	.	.	.	.	.	.	.	.	.
8r	8dd'\J	.	.	.	.	.	.	.	.	.	.	.
=103	=103	=103	=103	=103	=103	=103	=103	=103	=103	=103	=103	=103
.	(8qff#/	.	.	.	.	.	.	.	.	.	.	.
8AL 8E 8C# 8AA\	8ee'\L)	.	.	2.r	.	2.r	.	.	2.r	2.r	.	.
8A 8E 8C# 8AA\	8dd#X'\	.	.	.	.	.	.	.	.	.	.	.
8AJ 8E 8C# 8AA\	8ee'\J	.	.	.	.	.	.	.	.	.	.	.
4A 4E 4C# 4AA\	(4aa^<\	.	.	.	.	.	.	.	.	.	.	.
8r	8gg\)	.	.	.	.	.	.	.	.	.	.	.
=104	=104	=104	=104	=104	=104	=104	=104	=104	=104	=104	=104	=104
8AL 8F# 8D\	4ff#\	.	<	2.r	.	2.r	.	.	2.r	2.r	.	.
8A 8F# 8D\	.	.	.	.	.	.	.	.	.	.	.	.
8AJ 8F# 8D\	8r	.	.	.	.	.	.	.	.	.	.	.
!LO:S:s=1:note:problem:note-level slur	!	!	!	!	!	!	!	!	!	!	!	!
!LO:S:s=2:note:problem:note-level slur	!	!	!	!	!	!	!	!	!	!	!	!
!LO:S:s=3:note:problem:note-level slur	!LO:TX:a:t=Vno	!	!	!	!	!	!	!	!	!	!	!
(>4.A (>4.F# [4.D (<4.Cn^<\	(4.aa^<\	.	[[	.	.	.	.	.	.	.	.	.
=105	=105	=105	=105	=105	=105	=105	=105	=105	=105	=105	=105	=105
!LO:S:s=1:note:problem:note-level slur	!	!	!	!	!	!	!	!	!	!	!	!
!LO:S:s=2:note:problem:note-level slur	!	!	!	!	!	!	!	!	!	!	!	!
!LO:S:s=3:note:problem:note-level slur	!	!	!	!	!	!	!	!	!	!	!	!
8GL)) 8D] 8BB\)	4gg\)	.	.	2.r	.	2.r	.	.	2.r	2.r	.	.
8G 8D 8BB\	.	.	.	.	.	.	.	.	.	.	.	.
8GJ 8D 8BB\	8r	.	.	.	.	.	.	.	.	.	.	.
!LO:S:s=1:note:problem:note-level slur	!	!	!	!	!	!	!	!	!	!	!	!
!LO:S:s=2:note:problem:note-level slur	!	!	!	!	!	!	!	!	!	!	!	!
!LO:S:s=3:note:problem:note-level slur	!	!	!	!	!	!	!	!	!	!	!	!
(4.G#X (4.Fn [4.D (4.BB-X^<\	[4.ddd [4.dd\	.	.	.	.	.	.	.	.	.	.	.
=106	=106	=106	=106	=106	=106	=106	=106	=106	=106	=106	=106	=106
!LO:S:s=1:note:problem:note-level slur	!	!	!	!	!	!	!	!	!	!	!	!
!LO:S:s=2:note:problem:note-level slur	!	!	!	!	!	!	!	!	!	!	!	!
!LO:S:s=3:note:problem:note-level slur	!	!	!	!	!	!	!	!	!	!	!	!
8AL) 8F#X) 8D] 8AA\)	8ddd]L 8dd\]	.	f	2.r	.	2.r	.	.	2.r	2.r	.	.
8F# 8D 8AA\	(8ee#X 8e#X\	.	.	.	.	.	.	.	.	.	.	.
8F#J 8D 8AA\	8ff#J 8f#\	.	.	.	.	.	.	.	.	.	.	.
!LO:S:s=1:note:problem:note-level slur	!	!	!	!	!	!	!	!	!	!	!	!
!LO:S:s=2:note:problem:note-level slur	!	!	!	!	!	!	!	!	!	!	!	!
!LO:S:s=3:note:problem:note-level slur	!	!	!	!	!	!	!	!	!	!	!	!
(4.G (4.C# (4.AA\	8aaL 8a\	.	.	.	.	.	.	.	.	.	.	.
.	8gg 8g\	.	.	.	.	.	.	.	.	.	.	.
.	8eenJ 8en\	.	.	.	.	.	.	.	.	.	.	.
=107	=107	=107	=107	=107	=107	=107	=107	=107	=107	=107	=107	=107
!LO:S:s=1:note:problem:note-level slur	!	!	!	!	!	!	!	!	!	!	!	!
!LO:S:s=2:note:problem:note-level slur	!	!	!	!	!	!	!	!	!	!	!	!
!LO:S:s=3:note:problem:note-level slur	!	!	!	!	!	!	!	!	!	!	!	!
8F#L) 8D\))	4dd 4d/)	.	.	2.r	.	2.r	.	.	2.r	2.r	.	.
8F#'\	.	.	.	.	.	.	.	.	.	.	.	.
8A'\J	8r	.	.	.	.	.	.	.	.	.	.	.
4D\	4r	.	.	.	.	.	.	.	.	.	.	.
8r	8r	.	.	.	.	.	.	.	.	.	.	.
!!LO:LB:g=original
==108	==108	==108	==108	==108	==108	==108	==108	==108	==108	==108	==108	==108
*M6/8	*M6/8	*	*	*M6/8	*	*M6/8	*	*	*M6/8	*M6/8	*	*
!	!LO:TX:a:B:t=CODA.:problem:przed akoladą	!	!	!	!	!	!	!	!	!	!	!
!	!LO:TX:a:t=Cor	!	!	!	!	!	!	!	!	!	!	!
8AL 8F# 8D\	4.d/	.	p	2.r	.	2.r	.	.	2.r	2.r	.	.
8A 8F# 8D\	.	.	.	.	.	.	.	.	.	.	.	.
8AJ 8F# 8D\	.	.	.	.	.	.	.	.	.	.	.	.
8AL 8F# 8D\	4.f#/	.	.	.	.	.	.	.	.	.	.	.
8A 8F# 8D\	.	.	.	.	.	.	.	.	.	.	.	.
8AJ 8F# 8D\	.	.	.	.	.	.	.	.	.	.	.	.
=109	=109	=109	=109	=109	=109	=109	=109	=109	=109	=109	=109	=109
*^	*	*	*	*	*	*	*	*	*	*	*	*
!	!	!LO:TX:a:t=P:problem:mixed beam	!	!	!	!	!	!	!	!	!	!	!
4.d>\	8AL 8F# 8D\	8d/L	.	.	2.r	.	2.r	.	.	2.r	2.r	.	.
!	!	!LO:TX:a:t=Ob	!	!	!	!	!	!	!	!	!	!	!
.	8A 8F# 8D\	16aa'\L	.	.	.	.	.	.	.	.	.	.	.
.	.	16gg'\	.	.	.	.	.	.	.	.	.	.	.
.	8AJ 8F# 8D\	16ff#'\	.	.	.	.	.	.	.	.	.	.	.
.	.	16ee'\JJ	.	.	.	.	.	.	.	.	.	.	.
!LO:TX:a:i:t=m.s.	!	!	!	!	!	!	!	!	!	!	!	!	!
[4.A^/	8F#L 8D\	8dd\	.	.	.	.	.	.	.	.	.	.	.
!	!	!LO:TX:a:t=Clar	!	!	!	!	!	!	!	!	!	!	!
.	8F# 8D\	16a'/LL	.	.	.	.	.	.	.	.	.	.	.
.	.	16g'/	.	.	.	.	.	.	.	.	.	.	.
.	8F#J 8D\	16f#'/	.	.	.	.	.	.	.	.	.	.	.
.	.	16e'/JJ	.	.	.	.	.	.	.	.	.	.	.
=110	=110	=110	=110	=110	=110	=110	=110	=110	=110	=110	=110	=110	=110
*	*	*^	*	*	*	*	*	*	*	*	*	*	*
8A/]	8F#L 8D\	4.d/	8ryy	.	.	2.r	.	2.r	.	.	2.r	2.r	.	.
!	!	!	!LO:TX:a:i:t=m.d.:problem:nad dolnym systemem	!	!	!	!	!	!	!	!	!	!	!
8ryy	8F# 8D\	.	8B</L	.	.	.	.	.	.	.	.	.	.	.
8ryy	8F#J 8D\	.	8c#</J	.	.	.	.	.	.	.	.	.	.	.
.	.	.	(8qe/	.	.	.	.	.	.	.	.	.	.	.
8AL 8F# 8D\	4ryy	4ryy	8d/L)	.	.	.	.	.	.	.	.	.	.	.
8A 8F# 8D\	.	.	8c#'/	.	.	.	.	.	.	.	.	.	.	.
8AJ 8F# 8D\	8ryy	8ryy	8d'/J	.	.	.	.	.	.	.	.	.	.	.
*	*	*v	*v	*	*	*	*	*	*	*	*	*	*	*
=111	=111	=111	=111	=111	=111	=111	=111	=111	=111	=111	=111	=111	=111
4.f#>\	8AL 8F# 8D\	8f#/	.	.	2.r	.	2.r	.	.	2.r	2.r	.	.
!	!	!LO:TX:a:t=Vno	!	!	!	!	!	!	!	!	!	!	!
.	8A 8F# 8D\	16dd'\LL	.	.	.	.	.	.	.	.	.	.	.
.	.	16ee'\	.	.	.	.	.	.	.	.	.	.	.
.	8AJ 8F# 8D\	16ff#'\	.	.	.	.	.	.	.	.	.	.	.
.	.	16gg'\JJ	.	.	.	.	.	.	.	.	.	.	.
!LO:TX:a:i:t=m.s.	!	!	!	!	!	!	!	!	!	!	!	!	!
4.d^/	8AL 8F# 8D\	8aa'\L	.	.	.	.	.	.	.	.	.	.	.
.	8A 8F# 8D\	16dd'\L	.	.	.	.	.	.	.	.	.	.	.
.	.	16ee'\	.	.	.	.	.	.	.	.	.	.	.
.	8AJ 8F# 8D\	16ff#'\	.	.	.	.	.	.	.	.	.	.	.
.	.	16dd'\JJ	.	.	.	.	.	.	.	.	.	.	.
!!LO:LB:g=original
=112	=112	=112	=112	=112	=112	=112	=112	=112	=112	=112	=112	=112	=112
4e/	8BL 8G 8D\	8b\	.	.	2.r	.	2.r	.	.	2.r	2.r	.	.
.	8B 8G 8D\	8r	.	.	.	.	.	.	.	.	.	.	.
8rf	8BJ 8G 8D\	8r	.	.	.	.	.	.	.	.	.	.	.
4ryy	8BL 8G 8D\	4.g/	.	.	.	.	.	.	.	.	.	.	.
.	8B 8G 8D\	.	.	.	.	.	.	.	.	.	.	.	.
8ryy	8BJ 8G 8D\	.	.	.	.	.	.	.	.	.	.	.	.
=113	=113	=113	=113	=113	=113	=113	=113	=113	=113	=113	=113	=113	=113
!	!	!LO:TX:a:t=P:problem:mixed beam	!	!	!	!	!	!	!	!	!	!	!
4.e>\	8BL 8G 8E\	8e/L	.	.	2.r	.	2.r	.	.	2.r	2.r	.	.
!	!	!LO:TX:a:t=Ob	!	!	!	!	!	!	!	!	!	!	!
.	8B 8G 8E\	16bb'\L	.	.	.	.	.	.	.	.	.	.	.
.	.	16aa'\	.	.	.	.	.	.	.	.	.	.	.
.	8BJ 8G 8E\	16gg'\	.	.	.	.	.	.	.	.	.	.	.
.	.	16ff#'\JJ	.	.	.	.	.	.	.	.	.	.	.
(4.B-X^/	8GL 8D\	8ee'\L	.	.	.	.	.	.	.	.	.	.	.
.	8G 8D\	16ee'\L	.	.	.	.	.	.	.	.	.	.	.
.	.	16ff#'\	.	.	.	.	.	.	.	.	.	.	.
.	8GJ 8D\	16gg'\	.	.	.	.	.	.	.	.	.	.	.
.	.	16ee'\JJ	.	.	.	.	.	.	.	.	.	.	.
=114	=114	=114	=114	=114	=114	=114	=114	=114	=114	=114	=114	=114	=114
!	!	!LO:TX:a:t=Vno	!	!	!	!	!	!	!	!	!	!	!
4A/)	8GL 8D\	8a\L	.	<	2.r	.	2.r	.	.	2.r	2.r	.	.
.	8c# 8A 8G 8D\	8cc#\	.	.	.	.	.	.	.	.	.	.	.
8ryy	8c#J 8A 8G 8D\	8ee\J	.	.	.	.	.	.	.	.	.	.	.
4ryy	8c#L 8A 8G 8D\	8aa\L	.	.	.	.	.	.	.	.	.	.	.
.	8c# 8A 8G 8D\	8gg#X\	.	.	.	.	.	.	.	.	.	.	.
8ryy	8c#J 8A 8G 8D\	8bb\J	.	[[	.	.	.	.	.	.	.	.	.
*v	*v	*	*	*	*	*	*	*	*	*	*	*	*
=115	=115	=115	=115	=115	=115	=115	=115	=115	=115	=115	=115	=115
8c#L 8A 8G 8D\	8aa\L	.	>	2.r	.	2.r	.	.	2.r	2.r	.	.
8c# 8A 8G 8D\	8gg#X\	.	.	.	.	.	.	.	.	.	.	.
8c#J 8A 8G 8D\	8bb\J	.	.	.	.	.	.	.	.	.	.	.
8c#L 8A 8G 8D\	8aa'\L	.	.	.	.	.	.	.	.	.	.	.
8c# 8A 8G 8D\	8ggn'\	.	.	.	.	.	.	.	.	.	.	.
8c#J 8A 8G 8D\	8ee'\J	.	]	.	.	.	.	.	.	.	.	.
=116	=116	=116	=116	=116	=116	=116	=116	=116	=116	=116	=116	=116
!	!LO:TX:b:t=poco cres-cen-do:ext=cd:problem:text with extention lines	!	!	!	!	!	!	!	!	!	!	!
!	!LO:TX:a:t=Ob	!	!	!	!	!	!	!	!	!	!	!
8dL 8A 8F# 8D\	4.dd\	.	<	2.r	.	2.r	.	.	2.r	2.r	.	.
8d 8A 8F# 8D\	.	.	.	.	.	.	.	.	.	.	.	.
8dJ 8A 8F# 8D\	.	.	.	.	.	.	.	.	.	.	.	.
8dL 8A 8F# 8D\	4.ff#\	.	.	.	.	.	.	.	.	.	.	.
8d 8A 8F# 8D\	.	.	.	.	.	.	.	.	.	.	.	.
8dJ 8A 8F# 8D\	.	.	.	.	.	.	.	.	.	.	.	.
!!LO:LB:g=original
=117	=117	=117	=117	=117	=117	=117	=117	=117	=117	=117	=117	=117
*	*^	*	*	*	*	*	*	*	*	*	*	*
8dL 8A 8F# 8D\	8r	4.dd\	.	.	2.r	.	2.r	.	.	2.r	2.r	.	.
!	!LO:TX:a:t=Vno	!	!	!	!	!	!	!	!	!	!	!	!
8d 8A 8F# 8D\	16aa/LL	.	.	.	.	.	.	.	.	.	.	.	.
.	16gg/	.	.	.	.	.	.	.	.	.	.	.	.
8dJ 8A 8F# 8D\	16ff#/	.	.	.	.	.	.	.	.	.	.	.	.
*	*	*	*below	*	*	*	*	*	*	*	*	*	*
.	16ee/JJ	.	1	.	.	.	.	.	.	.	.	.	.
*	*	*	*above	*	*	*	*	*	*	*	*	*	*
8dL 8A 8F# 8D\	8dd/L	(4.a^\	5	.	.	.	.	.	.	.	.	.	.
8d 8A 8F# 8D\	16a/L	.	1	.	.	.	.	.	.	.	.	.	.
.	16g/	.	4	.	.	.	.	.	.	.	.	.	.
8dJ 8A 8F# 8D\	16f#/	.	.	.	.	.	.	.	.	.	.	.	.
.	16e/JJ	.	.	.	.	.	.	.	.	.	.	.	.
=118	=118	=118	=118	=118	=118	=118	=118	=118	=118	=118	=118	=118	=118
8AL 8F# 8D\	8a/L	4d\)	.	.	2.r	.	2.r	.	.	2.r	2.r	.	.
8A 8F# 8D\	8b/	.	.	.	.	.	.	.	.	.	.	.	.
8AJ 8F# 8D\	8cc#/J	8re	.	.	.	.	.	.	.	.	.	.	.
.	(<8qee/	.	.	.	.	.	.	.	.	.	.	.	.
8AL 8F# 8D\	8dd/L)	4r	.	.	.	.	.	.	.	.	.	.	.
8A 8F# 8D\	8cc#/	.	.	.	.	.	.	.	.	.	.	.	.
8AJ 8F# 8D\	8dd/J	8re	.	.	.	.	.	.	.	.	.	.	.
=119	=119	=119	=119	=119	=119	=119	=119	=119	=119	=119	=119	=119	=119
*	*	*	*^	*	*	*	*	*	*	*	*	*	*
8AL 8F# 8D\	4ff#/	8rf	.	.	.	2.r	.	2.r	.	.	2.r	2.r	.	.
8A 8F# 8D\	.	16d\LL	.	.	.	.	.	.	.	.	.	.	.	.
.	.	16e\	.	.	.	.	.	.	.	.	.	.	.	.
8AJ 8F# 8D\	8rff	16f#\	.	.	.	.	.	.	.	.	.	.	.	.
.	.	16g\JJ	.	1	.	.	.	.	.	.	.	.	.	.
8AL 8F# 8D\	8dd/L	4a\	5	2	.	.	.	.	.	.	.	.	.	.
8A 8F# 8D\	16dd/L	.	2	.	.	.	.	.	.	.	.	.	.	.
.	16ee/	.	.	.	.	.	.	.	.	.	.	.	.	.
8AJ 8F# 8D\	16ff#/	8rf	.	.	.	.	.	.	.	.	.	.	.	.
.	16dd/JJ	.	.	.	.	.	.	.	.	.	.	.	.	.
*	*v	*v	*	*	*	*	*	*	*	*	*	*	*	*
*	*	*v	*v	*	*	*	*	*	*	*	*	*	*
=120	=120	=120	=120	=120	=120	=120	=120	=120	=120	=120	=120	=120
8BL 8G 8D\	4.ee\	.	.	2.r	.	2.r	.	.	2.r	2.r	.	.
8B 8G 8D\	.	.	.	.	.	.	.	.	.	.	.	.
8BJ 8G 8D\	.	.	.	.	.	.	.	.	.	.	.	.
8BL 8G 8D\	4.gg\	.	.	.	.	.	.	.	.	.	.	.
8B 8G 8D\	.	.	.	.	.	.	.	.	.	.	.	.
8BJ 8G 8D\	.	.	.	.	.	.	.	.	.	.	.	.
=121	=121	=121	=121	=121	=121	=121	=121	=121	=121	=121	=121	=121
*	*^	*	*	*	*	*	*	*	*	*	*	*
*	*	*	*^	*	*	*	*	*	*	*	*	*	*
!	!	!LO:TX:t=P:problem: nie wyświetla się fing	!	!	!	!	!	!	!	!	!	!	!	!
8BL 8G 8D\	8rbb	4.ee\	.	1	.	2.r	.	2.r	.	.	2.r	2.r	.	.
8B 8G 8D\	16bb/LL	.	4	.	.	.	.	.	.	.	.	.	.	.
.	16aa/	.	3	.	.	.	.	.	.	.	.	.	.	.
8BJ 8G 8D\	16gg/	.	2	.	.	.	.	.	.	.	.	.	.	.
.	16ff#/JJ	.	4	.	.	.	.	.	.	.	.	.	.	.
8B-XL 8G 8D\	8ee/L	4.b-X^\	3	1	.	.	.	.	.	.	.	.	.	.
8B- 8G 8D\	16ee/L	.	.	.	.	.	.	.	.	.	.	.	.	.
.	16ff#/	.	.	.	.	.	.	.	.	.	.	.	.	.
8B-J 8G 8D\	16gg/	.	.	.	.	.	.	.	.	.	.	.	.	.
.	16ee/JJ	.	.	.	[[	.	.	.	.	.	.	.	.	.
*	*v	*v	*	*	*	*	*	*	*	*	*	*	*	*
*	*	*v	*v	*	*	*	*	*	*	*	*	*	*
!!LO:LB:g=original
=122	=122	=122	=122	=122	=122	=122	=122	=122	=122	=122	=122	=122
!	!	!	!LO:DY:b:rj	!	!	!	!	!	!	!	!	!
8c#L 8A 8G 8D\	8a\L	.	mf	2.r	.	2.r	.	.	2.r	2.r	.	.
8c# 8G 8D\	8cc#\	.	.	.	.	.	.	.	.	.	.	.
8c#J 8A 8G 8D\	8ee\J	.	.	.	.	.	.	.	.	.	.	.
8c#L 8A 8G 8D\	8aa\L	.	.	.	.	.	.	.	.	.	.	.
8c# 8A 8G 8D\	8gg#X\	.	.	.	.	.	.	.	.	.	.	.
8c#J 8A 8G 8D\	8bb\J	.	<	.	.	.	.	.	.	.	.	.
=123	=123	=123	=123	=123	=123	=123	=123	=123	=123	=123	=123	=123
8c#L 8A 8G 8D\	8aa\L	.	.	2.r	.	2.r	.	.	2.r	2.r	.	.
8c# 8A 8G 8D\	8gg#X\	.	.	.	.	.	.	.	.	.	.	.
8c#J 8A 8G 8D\	8bb\J	.	.	.	.	.	.	.	.	.	.	.
8c#L 8A 8G 8D\	8aa\L	.	.	.	.	.	.	.	.	.	.	.
8c# 8A 8G 8D\	8ggn\	.	.	.	.	.	.	.	.	.	.	.
8c#J 8A 8G 8D\	8ee\J	.	[[	.	.	.	.	.	.	.	.	.
=124	=124	=124	=124	=124	=124	=124	=124	=124	=124	=124	=124	=124
8dL 8A 8F# 8D\	4.ddd 4.dd\	.	f	2.r	.	2.r	.	.	2.r	2.r	.	.
8d 8A 8F# 8D\	.	.	.	.	.	.	.	.	.	.	.	.
8dJ 8A 8F# 8D\	.	.	.	.	.	.	.	.	.	.	.	.
8dL 8A 8F# 8D\	4.fff# 4.ff#\	.	.	.	.	.	.	.	.	.	.	.
8d 8A 8F# 8D\	.	.	.	.	.	.	.	.	.	.	.	.
8dJ 8A 8F# 8D\	.	.	.	.	.	.	.	.	.	.	.	.
=125	=125	=125	=125	=125	=125	=125	=125	=125	=125	=125	=125	=125
*tremolo	*	*	*	*	*	*	*	*	*	*	*	*
16F#LL 16D\	4.ddd 4.dd\	.	.	2.r	.	2.r	.	.	2.r	2.r	.	.
16A\	.	.	.	.	.	.	.	.	.	.	.	.
16F# 16D\	.	.	.	.	.	.	.	.	.	.	.	.
16A\	.	.	.	.	.	.	.	.	.	.	.	.
16F# 16D\	.	.	.	.	.	.	.	.	.	.	.	.
16A\	.	.	.	.	.	.	.	.	.	.	.	.
16F# 16D\	[4.aa [4.a^\	.	.	.	.	.	.	.	.	.	.	.
16A\	.	.	.	.	.	.	.	.	.	.	.	.
16F# 16D\	.	.	.	.	.	.	.	.	.	.	.	.
16A\	.	.	.	.	.	.	.	.	.	.	.	.
16F# 16D\	.	.	.	.	.	.	.	.	.	.	.	.
16A\JJ	.	.	.	.	.	.	.	.	.	.	.	.
=126	=126	=126	=126	=126	=126	=126	=126	=126	=126	=126	=126	=126
16F#LL 16D\	8aa]L 8a\]	.	.	2.r	.	2.r	.	.	2.r	2.r	.	.
16A\	.	.	.	.	.	.	.	.	.	.	.	.
16F# 16D\	8bb 8b\	.	.	.	.	.	.	.	.	.	.	.
16A\	.	.	.	.	.	.	.	.	.	.	.	.
16F# 16D\	8ccc#J 8cc#\	.	.	.	.	.	.	.	.	.	.	.
16A\	.	.	.	.	.	.	.	.	.	.	.	.
16F# 16D\	8dddL 8dd\	.	.	.	.	.	.	.	.	.	.	.
16A\	.	.	.	.	.	.	.	.	.	.	.	.
16F# 16D\	8ccc# 8cc#\	.	.	.	.	.	.	.	.	.	.	.
16A\	.	.	.	.	.	.	.	.	.	.	.	.
16F# 16D\	8dddJ 8dd\	.	.	.	.	.	.	.	.	.	.	.
16A\JJ	.	.	.	.	.	.	.	.	.	.	.	.
!!LO:PB:g=original
=127	=127	=127	=127	=127	=127	=127	=127	=127	=127	=127	=127	=127
16F#LL 16D\	4.fff# 4.ff#\	.	.	2.r	.	2.r	.	.	2.r	2.r	.	.
16A\	.	.	.	.	.	.	.	.	.	.	.	.
16F# 16D\	.	.	.	.	.	.	.	.	.	.	.	.
16A\	.	.	.	.	.	.	.	.	.	.	.	.
16F# 16D\	.	.	.	.	.	.	.	.	.	.	.	.
16A\	.	.	.	.	.	.	.	.	.	.	.	.
16F# 16D\	4.ddd 4.dd\	.	.	.	.	.	.	.	.	.	.	.
16A\	.	.	.	.	.	.	.	.	.	.	.	.
16F# 16D\	.	.	.	.	.	.	.	.	.	.	.	.
16A\	.	.	.	.	.	.	.	.	.	.	.	.
16F# 16D\	.	.	.	.	.	.	.	.	.	.	.	.
16A\JJ	.	.	.	.	.	.	.	.	.	.	.	.
=128	=128	=128	=128	=128	=128	=128	=128	=128	=128	=128	=128	=128
!	!LO:TX:b:t=cres-:ext=cd:problem:text with extention lines	!	!	!	!	!	!	!	!	!	!	!
16GLL 16D\	4.eee 4.ee\	.	<	2.r	.	2.r	.	.	2.r	2.r	.	.
16B\	.	.	.	.	.	.	.	.	.	.	.	.
16G 16D\	.	.	.	.	.	.	.	.	.	.	.	.
16B\	.	.	.	.	.	.	.	.	.	.	.	.
16G 16D\	.	.	.	.	.	.	.	.	.	.	.	.
16B\	.	.	.	.	.	.	.	.	.	.	.	.
16G 16D\	4.ggg 4.gg\	.	.	.	.	.	.	.	.	.	.	.
16B\	.	.	.	.	.	.	.	.	.	.	.	.
16G 16D\	.	.	.	.	.	.	.	.	.	.	.	.
16B\	.	.	.	.	.	.	.	.	.	.	.	.
16G 16D\	.	.	.	.	.	.	.	.	.	.	.	.
16B\JJ	.	.	.	.	.	.	.	.	.	.	.	.
=129	=129	=129	=129	=129	=129	=129	=129	=129	=129	=129	=129	=129
16GLL 16D\	4.eee 4.ee\	.	.	2.r	.	2.r	.	.	2.r	2.r	.	.
16B\	.	.	.	.	.	.	.	.	.	.	.	.
16G 16D\	.	.	.	.	.	.	.	.	.	.	.	.
16B\	.	.	.	.	.	.	.	.	.	.	.	.
16G 16D\	.	.	.	.	.	.	.	.	.	.	.	.
16B\JJ	.	.	.	.	.	.	.	.	.	.	.	.
16GLL 16D\	4.bb-X 4.b-X^<\	.	.	.	.	.	.	.	.	.	.	.
16B-X\	.	.	.	.	.	.	.	.	.	.	.	.
16G 16D\	.	.	.	.	.	.	.	.	.	.	.	.
16B-\	.	.	.	.	.	.	.	.	.	.	.	.
16G 16D\	.	.	.	.	.	.	.	.	.	.	.	.
16B-X\JJ	.	.	.	.	.	.	.	.	.	.	.	.
=130	=130	=130	=130	=130	=130	=130	=130	=130	=130	=130	=130	=130
16GLL 16E 16D\	8aaL 8a\	.	.	2.r	.	2.r	.	.	2.r	2.r	.	.
16A\	.	.	.	.	.	.	.	.	.	.	.	.
16G 16E 16D\	8gg#X 8g#X\	.	.	.	.	.	.	.	.	.	.	.
16A\	.	.	.	.	.	.	.	.	.	.	.	.
16G 16E 16D\	8aaJ 8a\	.	.	.	.	.	.	.	.	.	.	.
16A\	.	.	.	.	.	.	.	.	.	.	.	.
16G 16E 16D\	8bb-XL 8b-X\	.	.	.	.	.	.	.	.	.	.	.
16A\	.	.	.	.	.	.	.	.	.	.	.	.
16G 16E 16D\	8aa 8a\	.	.	.	.	.	.	.	.	.	.	.
16A\	.	.	.	.	.	.	.	.	.	.	.	.
16G 16E 16D\	8bb-J 8b-\	.	.	.	.	.	.	.	.	.	.	.
16A\JJ	.	.	.	.	.	.	.	.	.	.	.	.
=131	=131	=131	=131	=131	=131	=131	=131	=131	=131	=131	=131	=131
16GLL 16E 16D\	8bbnL 8bn\	.	.	2.r	.	2.r	.	.	2.r	2.r	.	.
16A\	.	.	.	.	.	.	.	.	.	.	.	.
16G 16E 16D\	8aa#X 8a#X\	.	.	.	.	.	.	.	.	.	.	.
16A\	.	.	.	.	.	.	.	.	.	.	.	.
16G 16E 16D\	8bbJ 8b\	.	.	.	.	.	.	.	.	.	.	.
16A\	.	.	.	.	.	.	.	.	.	.	.	.
16G 16E 16D\	8ccc#L 8cc#\	.	.	.	.	.	.	.	.	.	.	.
16A\	.	.	.	.	.	.	.	.	.	.	.	.
16G 16E 16D\	8bb 8b\	.	.	.	.	.	.	.	.	.	.	.
16A\	.	.	.	.	.	.	.	.	.	.	.	.
16G 16E 16D\	8ccc#J 8cc#\	.	[[	.	.	.	.	.	.	.	.	.
16A\JJ	.	.	.	.	.	.	.	.	.	.	.	.
*Xtremolo	*	*	*	*	*	*	*	*	*	*	*	*
!!LO:LB:g=original
=132	=132	=132	=132	=132	=132	=132	=132	=132	=132	=132	=132	=132
*^	*^	*	*	*	*	*	*	*	*	*	*	*
!	!	!LO:TX:a:B:t=Più vivo.	!	!	!	!	!	!	!	!	!	!	!	!
4A 4F# 4D\	4ryy	4ddd 4dd\	4ryy	.	ff	2.r	.	2.r	.	.	2.r	2.r	.	.
!	!	!LO:TX:a:t=Ob.	!	!	!	!	!	!	!	!	!	!	!	!
!LO:TX:a:t=Fag.	!	!LO:TX:b:t=Clar.	!	!	!	!	!	!	!	!	!	!	!	!
8A 8F# 8D\	8ryy	8aa 8ff# 8dd\	8ryy	.	[	.	.	.	.	.	.	.	.	.
(8AL 8F#^/	4.D\	(8aaL 8ff#^/	4.dd\	.	.	.	.	.	.	.	.	.	.	.
8G#X 8E#X/	.	8gg#X 8ee#X/	.	.	.	.	.	.	.	.	.	.	.	.
8AJ 8F#/)	.	8aaJ 8ff#/)	.	.	.	.	.	.	.	.	.	.	.	.
=133!|:	=133!|:	=133!|:	=133!|:	=133!|:	=133!|:	=133!|:	=133!|:	=133!|:	=133!|:	=133!|:	=133!|:	=133!|:	=133!|:	=133!|:
*>G	*>G	*>G	*>G	*>G	*>G	*>G	*>G	*>G	*>G	*>G	*>G	*>G	*>G	*>G
(8AL 8F#^/	4.D\	(8aaL 8ff#^/	4.dd\	.	.	2.r	.	2.r	.	.	2.r	2.r	.	.
8G#X 8E#X/	.	8gg#X 8ee#X/	.	.	.	.	.	.	.	.	.	.	.	.
8AJ 8F#/)	.	8aaJ 8ff#/)	.	.	.	.	.	.	.	.	.	.	.	.
(8AL 8F#^/	4.D\	(8aaL 8ff#^/	4.dd\	.	.	.	.	.	.	.	.	.	.	.
8G# 8E#/	.	8gg# 8ee#/	.	.	.	.	.	.	.	.	.	.	.	.
8AJ 8F#/)	.	8aaJ 8ff#/)	.	.	.	.	.	.	.	.	.	.	.	.
*v	*v	*	*	*	*	*	*	*	*	*	*	*	*	*
*	*v	*v	*	*	*	*	*	*	*	*	*	*	*
=134	=134	=134	=134	=134	=134	=134	=134	=134	=134	=134	=134	=134
4A 4En 4C# 4AA\	8ggnL 8een\	.	.	2.r	.	2.r	.	.	2.r	2.r	.	.
!	!LO:TX:a:t=Vno	!	!	!	!	!	!	!	!	!	!	!
.	(16ggg\L	.	>	.	.	.	.	.	.	.	.	.
.	16fff#\	.	.	.	.	.	.	.	.	.	.	.
8r	16eee\	.	.	.	.	.	.	.	.	.	.	.
.	16ddd\JJ	.	]	.	.	.	.	.	.	.	.	.
4A 4E 4C# 4AA\	8ccc#\L)	.	.	.	.	.	.	.	.	.	.	.
.	(16eee\L	.	>	.	.	.	.	.	.	.	.	.
.	16ddd\	.	.	.	.	.	.	.	.	.	.	.
8r	16ccc#\	.	.	.	.	.	.	.	.	.	.	.
.	16bb\JJ	.	]	.	.	.	.	.	.	.	.	.
=135	=135	=135	=135	=135	=135	=135	=135	=135	=135	=135	=135	=135
!LO:S:s=1:note:problem:note-level slur	!	!	!	!	!	!	!	!	!	!	!	!
!LO:S:s=2:note:problem:note-level slur	!	!	!	!	!	!	!	!	!	!	!	!
!LO:S:s=3:note:problem:note-level slur	!	!	!	!	!	!	!	!	!	!	!	!
!LO:S:s=4:note:problem:note-level slur	!	!	!	!	!	!	!	!	!	!	!	!
(>2.G (>2.E (<2.C# (<2.AA\	8aa\L)	.	>	2.r	.	2.r	.	.	2.r	2.r	.	.
.	(16gg\L	.	.	.	.	.	.	.	.	.	.	.
.	16ff#\	.	.	.	.	.	.	.	.	.	.	.
.	16ee\	.	]]	.	.	.	.	.	.	.	.	.
.	16dd\JJ	.	.	.	.	.	.	.	.	.	.	.
.	16cc#/LL	.	.	.	.	.	.	.	.	.	.	.
.	16b/	.	.	.	.	.	.	.	.	.	.	.
.	16a/	.	.	.	.	.	.	.	.	.	.	.
.	16g/	.	.	.	.	.	.	.	.	.	.	.
.	16f#/	.	.	.	.	.	.	.	.	.	.	.
.	16e/JJ)	.	.	.	.	.	.	.	.	.	.	.
!!LO:LB:g=original
=136	=136	=136	=136	=136	=136	=136	=136	=136	=136	=136	=136	=136
*^	*^	*	*	*	*	*	*	*	*	*	*	*
4F#/))	4D\))	4d/	4ryy	.	.	2.r	.	2.r	.	.	2.r	2.r	.	.
8A 8F#/	8D\	8aa 8ff# 8dd\	8ryy	.	.	.	.	.	.	.	.	.	.	.
(8AL 8F#^/	4.D\	(8aaL 8ff#^/	4.dd\	.	.	.	.	.	.	.	.	.	.	.
8G#X 8E#X/	.	8gg#X 8ee#X/	.	.	.	.	.	.	.	.	.	.	.	.
8AJ 8F#/)	.	8aaJ 8ff#/)	.	.	.	.	.	.	.	.	.	.	.	.
=137	=137	=137	=137	=137	=137	=137	=137	=137	=137	=137	=137	=137	=137	=137
(8AL 8F#^/	4.D\	(8aaL 8ff#^/	4.dd\	.	.	2.r	.	2.r	.	.	2.r	2.r	.	.
8G#X 8E#X/	.	8gg#X 8ee#X/	.	.	.	.	.	.	.	.	.	.	.	.
8AJ 8F#/)	.	8aaJ 8ff#/)	.	.	.	.	.	.	.	.	.	.	.	.
(8AL 8F#^/	4.D\	(8aaL 8ff#^/	4.dd\	.	.	.	.	.	.	.	.	.	.	.
8G# 8E#/	.	8gg# 8ee#/	.	.	.	.	.	.	.	.	.	.	.	.
8AJ 8F#/)	.	8aaJ 8ff#/)	.	.	.	.	.	.	.	.	.	.	.	.
*v	*v	*	*	*	*	*	*	*	*	*	*	*	*	*
*	*v	*v	*	*	*	*	*	*	*	*	*	*	*
=138	=138	=138	=138	=138	=138	=138	=138	=138	=138	=138	=138	=138
4A 4En 4C# 4AA\	8ggnL 8een\	.	.	2.r	.	2.r	.	.	2.r	2.r	.	.
.	(16ggg\L	.	.	.	.	.	.	.	.	.	.	.
.	16fff#\	.	.	.	.	.	.	.	.	.	.	.
8r	16eee\	.	.	.	.	.	.	.	.	.	.	.
.	16ddd\JJ	.	.	.	.	.	.	.	.	.	.	.
4A 4E 4C# 4AA\	8ccc#\L)	.	.	.	.	.	.	.	.	.	.	.
.	(16eee\L	.	.	.	.	.	.	.	.	.	.	.
.	16ddd\	.	.	.	.	.	.	.	.	.	.	.
8r	16ccc#\	.	.	.	.	.	.	.	.	.	.	.
.	16bb\JJ	.	.	.	.	.	.	.	.	.	.	.
=139	=139	=139	=139	=139	=139	=139	=139	=139	=139	=139	=139	=139
!LO:S:s=1:note:problem:note-level slur	!	!	!	!	!	!	!	!	!	!	!	!
!LO:S:s=2:note:problem:note-level slur	!	!	!	!	!	!	!	!	!	!	!	!
!LO:S:s=3:note:problem:note-level slur	!	!	!	!	!	!	!	!	!	!	!	!
!LO:S:s=4:note:problem:note-level slur	!	!	!	!	!	!	!	!	!	!	!	!
(>2.G (>2.E (<2.C# (<2.AA\	8aa\L)	.	.	2.r	.	2.r	.	.	2.r	2.r	.	.
.	(16gg\L	.	.	.	.	.	.	.	.	.	.	.
.	16ff#\	.	.	.	.	.	.	.	.	.	.	.
.	16ee\	.	.	.	.	.	.	.	.	.	.	.
.	16dd\JJ	.	.	.	.	.	.	.	.	.	.	.
.	16cc#/LL	.	.	.	.	.	.	.	.	.	.	.
.	16b/	.	.	.	.	.	.	.	.	.	.	.
.	16a/	.	.	.	.	.	.	.	.	.	.	.
.	16g/	.	.	.	.	.	.	.	.	.	.	.
.	16f#/	.	.	.	.	.	.	.	.	.	.	.
.	16e/JJ)	.	.	.	.	.	.	.	.	.	.	.
!!LO:LB:g=original
=140	=140	=140	=140	=140	=140	=140	=140	=140	=140	=140	=140	=140
4F#)) 4D\))	8d/	.	.	2.r	.	2.r	.	.	2.r	2.r	.	.
!	!	!	!LO:DY:b:t=sempre %s	!	!	!	!	!	!	!	!	!
.	16dddLL 16aa 16ff#\	.	ff	.	.	.	.	.	.	.	.	.
.	16dd\	.	.	.	.	.	.	.	.	.	.	.
8r	16ddd 16aa 16ff#\	.	.	.	.	.	.	.	.	.	.	.
.	16dd\JJ	.	.	.	.	.	.	.	.	.	.	.
*	*tremolo	*	*	*	*	*	*	*	*	*	*	*
4.d 4.D\	16dddLL 16aa 16ff#\	.	.	.	.	.	.	.	.	.	.	.
.	16dd\	.	.	.	.	.	.	.	.	.	.	.
.	16ddd 16aa 16ff#\	.	.	.	.	.	.	.	.	.	.	.
.	16dd\	.	.	.	.	.	.	.	.	.	.	.
.	16ddd 16aa 16ff#\	.	.	.	.	.	.	.	.	.	.	.
.	16dd\JJ	.	.	.	.	.	.	.	.	.	.	.
=141	=141	=141	=141	=141	=141	=141	=141	=141	=141	=141	=141	=141
!	!	!	!LO:DY:a=2	!	!	!	!	!	!	!	!	!
[4.Cn [4.CCn/	16dddLL 16aa 16ff#\	.	fz	2.r	.	2.r	.	.	2.r	2.r	.	.
.	16dd\	.	.	.	.	.	.	.	.	.	.	.
.	16ddd 16aa 16ff#\	.	.	.	.	.	.	.	.	.	.	.
.	16dd\	.	.	.	.	.	.	.	.	.	.	.
.	16ddd 16aa 16ff#\	.	.	.	.	.	.	.	.	.	.	.
.	16dd\	.	.	.	.	.	.	.	.	.	.	.
8C]L 8CC/]	16ddd 16aa 16ff#\	.	.	.	.	.	.	.	.	.	.	.
.	16dd\	.	.	.	.	.	.	.	.	.	.	.
8D 8DD/	16ddd 16aa 16ff#\	.	.	.	.	.	.	.	.	.	.	.
.	16dd\	.	.	.	.	.	.	.	.	.	.	.
8CJ 8CC/	16ddd 16aa 16ff#\	.	.	.	.	.	.	.	.	.	.	.
.	16dd\JJ	.	.	.	.	.	.	.	.	.	.	.
=142	=142	=142	=142	=142	=142	=142	=142	=142	=142	=142	=142	=142
4.BB 4.BBB/	16dddLL 16gg\	.	.	2.r	.	2.r	.	.	2.r	2.r	.	.
.	16dd\	.	.	.	.	.	.	.	.	.	.	.
.	16ddd 16gg\	.	.	.	.	.	.	.	.	.	.	.
.	16dd\	.	.	.	.	.	.	.	.	.	.	.
.	16ddd 16gg\	.	.	.	.	.	.	.	.	.	.	.
.	16dd\	.	.	.	.	.	.	.	.	.	.	.
4.d 4.D\	16ddd 16gg\	.	.	.	.	.	.	.	.	.	.	.
.	16dd\	.	.	.	.	.	.	.	.	.	.	.
.	16ddd 16gg\	.	.	.	.	.	.	.	.	.	.	.
.	16dd\	.	.	.	.	.	.	.	.	.	.	.
.	16ddd 16gg\	.	.	.	.	.	.	.	.	.	.	.
.	16dd\JJ	.	.	.	.	.	.	.	.	.	.	.
=143	=143	=143	=143	=143	=143	=143	=143	=143	=143	=143	=143	=143
!	!	!	!LO:DY:a=2	!	!	!	!	!	!	!	!	!
[4.Cn [4.CCn/	16dddLL 16aa 16ff#\	.	fz	2.r	.	2.r	.	.	2.r	2.r	.	.
.	16dd\	.	.	.	.	.	.	.	.	.	.	.
.	16ddd 16aa 16ff#\	.	.	.	.	.	.	.	.	.	.	.
.	16dd\	.	.	.	.	.	.	.	.	.	.	.
.	16ddd 16aa 16ff#\	.	.	.	.	.	.	.	.	.	.	.
.	16dd\	.	.	.	.	.	.	.	.	.	.	.
8C]L 8CC/]	16ddd 16aa 16ff#\	.	.	.	.	.	.	.	.	.	.	.
.	16dd\	.	.	.	.	.	.	.	.	.	.	.
8D 8DD/	16ddd 16aa 16ff#\	.	.	.	.	.	.	.	.	.	.	.
.	16dd\	.	.	.	.	.	.	.	.	.	.	.
8CJ 8CC/	16ddd 16aa 16ff#\	.	.	.	.	.	.	.	.	.	.	.
.	16dd\JJ	.	.	.	.	.	.	.	.	.	.	.
=144	=144	=144	=144	=144	=144	=144	=144	=144	=144	=144	=144	=144
4.BB 4.BBB/	16dddLL 16gg\	.	.	2.r	.	2.r	.	.	2.r	2.r	.	.
.	16dd\	.	.	.	.	.	.	.	.	.	.	.
.	16ddd 16gg\	.	.	.	.	.	.	.	.	.	.	.
.	16dd\	.	.	.	.	.	.	.	.	.	.	.
.	16ddd 16gg\	.	.	.	.	.	.	.	.	.	.	.
.	16dd\	.	.	.	.	.	.	.	.	.	.	.
(4.B (4.BB^\	16ddd 16gg\	.	.	.	.	.	.	.	.	.	.	.
.	16dd\	.	.	.	.	.	.	.	.	.	.	.
.	16ddd 16gg\	.	.	.	.	.	.	.	.	.	.	.
.	16dd\	.	.	.	.	.	.	.	.	.	.	.
.	16ddd 16gg\	.	.	.	.	.	.	.	.	.	.	.
.	16dd\JJ	.	.	.	.	.	.	.	.	.	.	.
=145	=145	=145	=145	=145	=145	=145	=145	=145	=145	=145	=145	=145
4.B-X) 4.BB-X\)	16dddLL 16gg#X 16ffn\	.	.	2.r	.	2.r	.	.	2.r	2.r	.	.
.	16dd\	.	.	.	.	.	.	.	.	.	.	.
.	16ddd 16gg# 16ff\	.	.	.	.	.	.	.	.	.	.	.
.	16dd\	.	.	.	.	.	.	.	.	.	.	.
.	16ddd 16gg# 16ff\	.	.	.	.	.	.	.	.	.	.	.
.	16dd\	.	.	.	.	.	.	.	.	.	.	.
(4.BB- (4.BBB-X^>/	16ddd 16gg# 16ff\	.	.	.	.	.	.	.	.	.	.	.
.	16dd\	.	.	.	.	.	.	.	.	.	.	.
.	16ddd 16gg# 16ff\	.	.	.	.	.	.	.	.	.	.	.
.	16dd\	.	.	.	.	.	.	.	.	.	.	.
.	16ddd 16gg# 16ff\	.	.	.	.	.	.	.	.	.	.	.
.	16dd\JJ	.	.	.	.	.	.	.	.	.	.	.
=146	=146	=146	=146	=146	=146	=146	=146	=146	=146	=146	=146	=146
4.AA) 4.AAA/)	16dddLL 16aa 16ff#X\	.	.	2.r	.	2.r	.	.	2.r	2.r	.	.
.	16dd\	.	.	.	.	.	.	.	.	.	.	.
.	16ddd 16aa 16ff#\	.	.	.	.	.	.	.	.	.	.	.
.	16dd\	.	.	.	.	.	.	.	.	.	.	.
.	16ddd 16aa 16ff#\	.	.	.	.	.	.	.	.	.	.	.
.	16dd\	.	.	.	.	.	.	.	.	.	.	.
(4.A (4.AA^\	16ddd 16aa 16ff#\	.	.	.	.	.	.	.	.	.	.	.
.	16dd\	.	.	.	.	.	.	.	.	.	.	.
.	16ddd 16aa 16ff#\	.	.	.	.	.	.	.	.	.	.	.
.	16dd\	.	.	.	.	.	.	.	.	.	.	.
.	16ddd 16aa 16ff#\	.	.	.	.	.	.	.	.	.	.	.
.	16dd\JJ	.	.	.	.	.	.	.	.	.	.	.
!!LO:LB:g=original
=147	=147	=147	=147	=147	=147	=147	=147	=147	=147	=147	=147	=147
!LO:N:vis=4	!	!	!	!	!	!	!	!	!	!	!	!
4.G#X) 4.GG#X/)	16dddLL 16bb 16ee#X\	.	.	2.r	.	2.r	.	.	2.r	2.r	.	.
.	16dd\	.	.	.	.	.	.	.	.	.	.	.
.	16ddd 16bb 16ee#\	.	.	.	.	.	.	.	.	.	.	.
.	16dd\	.	.	.	.	.	.	.	.	.	.	.
.	16ddd 16bb 16ee#\	.	.	.	.	.	.	.	.	.	.	.
.	16dd\	.	.	.	.	.	.	.	.	.	.	.
!LO:N:vis=4	!	!	!	!	!	!	!	!	!	!	!	!
4.GG# 4.GGG#X/	16ddd 16bb 16ee#\	.	.	.	.	.	.	.	.	.	.	.
.	16dd\	.	.	.	.	.	.	.	.	.	.	.
.	16ddd 16bb 16ee#\	.	.	.	.	.	.	.	.	.	.	.
.	16dd\	.	.	.	.	.	.	.	.	.	.	.
.	16ddd 16bb 16ee#\	.	.	.	.	.	.	.	.	.	.	.
.	16dd\JJ	.	.	.	.	.	.	.	.	.	.	.
*	*Xtremolo	*	*	*	*	*	*	*	*	*	*	*
=148	=148	=148	=148	=148	=148	=148	=148	=148	=148	=148	=148	=148
!!LO:TX:a:B:t=1a
*>G1	*>G1	*>G1	*>G1	*>G1	*>G1	*>G1	*>G1	*>G1	*>G1	*>G1	*>G1	*>G1
4AA 4AAA/	8dddL 8aa 8ff#\	.	.	2.r	.	2.r	.	.	2.r	2.r	.	.
*	*8va	*	*	*	*	*	*	*	*	*	*	*
.	(16fff#\L	.	.	.	.	.	.	.	.	.	.	.
.	16eee\	.	.	.	.	.	.	.	.	.	.	.
8r	16ddd\	.	.	.	.	.	.	.	.	.	.	.
.	16ccc#\JJ	.	.	.	.	.	.	.	.	.	.	.
4B 4F# 4D 4BB\	8bb/L)	.	.	.	.	.	.	.	.	.	.	.
.	(16bb/L	.	.	.	.	.	.	.	.	.	.	.
.	16aa/	.	.	.	.	.	.	.	.	.	.	.
8r	16gg/	.	.	.	.	.	.	.	.	.	.	.
.	16ff#/JJ	.	.	.	.	.	.	.	.	.	.	.
=149	=149	=149	=149	=149	=149	=149	=149	=149	=149	=149	=149	=149
4G 4E 4BB 4GG/	8ee/)	.	.	2.r	.	2.r	.	.	2.r	2.r	.	.
*	*X8va	*	*	*	*	*	*	*	*	*	*	*
.	16gg\LL	.	.	.	.	.	.	.	.	.	.	.
.	16ff#\	.	.	.	.	.	.	.	.	.	.	.
8r	16ee\	.	.	.	.	.	.	.	.	.	.	.
.	16dd\JJ	.	.	.	.	.	.	.	.	.	.	.
4G 4C# 4AA/	16cc#/LL	.	.	.	.	.	.	.	.	.	.	.
.	16b/	.	.	.	.	.	.	.	.	.	.	.
.	16a/	.	.	.	.	.	.	.	.	.	.	.
.	16g/	.	.	.	.	.	.	.	.	.	.	.
8r	16f#/	.	.	.	.	.	.	.	.	.	.	.
.	16e/JJ	.	.	.	.	.	.	.	.	.	.	.
=150	=150	=150	=150	=150	=150	=150	=150	=150	=150	=150	=150	=150
*^	*^	*	*	*	*	*	*	*	*	*	*	*
4F#/	4D\	4d/	4ryy	.	.	2.r	.	2.r	.	.	2.r	2.r	.	.
8A/	8D\	8aa 8ff# 8dd\	8ryy	.	.	.	.	.	.	.	.	.	.	.
(8AL 8F#^/	4.D\	(8aaL 8ff#^/	4.dd\	.	.	.	.	.	.	.	.	.	.	.
8G#X 8E#X/	.	8gg#X 8ee#X/	.	.	.	.	.	.	.	.	.	.	.	.
8AJ 8F#/)	.	8aaJ 8ff#/)	.	.	.	.	.	.	.	.	.	.	.	.
*v	*v	*	*	*	*	*	*	*	*	*	*	*	*	*
*	*v	*v	*	*	*	*	*	*	*	*	*	*	*
=151:|!	=151:|!	=151:|!	=151:|!	=151:|!	=151:|!	=151:|!	=151:|!	=151:|!	=151:|!	=151:|!	=151:|!	=151:|!
!!LO:TX:a:B:t=2a
*>G2	*>G2	*>G2	*>G2	*>G2	*>G2	*>G2	*>G2	*>G2	*>G2	*>G2	*>G2	*>G2
8AA 8AAA/	8dddL 8aa 8ff# 8dd\	.	ff	2.r	.	2.r	.	.	2.r	2.r	.	.
8F#L 8D 8AA/	8fff#\	.	.	.	.	.	.	.	.	.	.	.
8F#J 8D 8AA/	8fff#\J	.	.	.	.	.	.	.	.	.	.	.
8F#L 8D 8AA/	(8fff#\L	.	.	.	.	.	.	.	.	.	.	.
8F# 8D 8AA/	8ddd\)	.	.	.	.	.	.	.	.	.	.	.
8F#J 8D 8AA/	8ddd'\J	.	.	.	.	.	.	.	.	.	.	.
!!LO:LB:g=original
=152	=152	=152	=152	=152	=152	=152	=152	=152	=152	=152	=152	=152
*>H	*>H	*>H	*>H	*>H	*>H	*>H	*>H	*>H	*>H	*>H	*>H	*>H
!	!LO:TX:b:i:t=sempre piu animato	!	!	!	!	!	!	!	!	!	!	!
8F#L 8D 8AA/	(8ddd\L	.	.	2.r	.	2.r	.	.	2.r	2.r	.	.
8F# 8D 8AA/	8aa\)	.	.	.	.	.	.	.	.	.	.	.
8F#J 8D 8AA/	8aa'\J	.	.	.	.	.	.	.	.	.	.	.
8F#L 8D 8AA/	(8aa\L	.	.	.	.	.	.	.	.	.	.	.
8F# 8D 8AA/	8ff#\)	.	.	.	.	.	.	.	.	.	.	.
8F#J 8D 8AA/	8ff#'\J	.	.	.	.	.	.	.	.	.	.	.
=153	=153	=153	=153	=153	=153	=153	=153	=153	=153	=153	=153	=153
8F#L 8D 8AA/	(8ff#\L	.	.	2.r	.	2.r	.	.	2.r	2.r	.	.
8F# 8D 8AA/	8dd\)	.	.	.	.	.	.	.	.	.	.	.
8F#J 8D 8AA/	8dd'\J	.	.	.	.	.	.	.	.	.	.	.
8F#L 8D 8AA/	(8dd\L	.	.	.	.	.	.	.	.	.	.	.
8F# 8D 8AA/	8a\)	.	.	.	.	.	.	.	.	.	.	.
8F#J 8D 8AA/	8a'\J	.	.	.	.	.	.	.	.	.	.	.
=154	=154	=154	=154	=154	=154	=154	=154	=154	=154	=154	=154	=154
8F#L 8D 8AA/	(8a/L	.	.	2.r	.	2.r	.	.	2.r	2.r	.	.
8F# 8D 8AA/	8f#/)	.	.	.	.	.	.	.	.	.	.	.
8F#J 8D 8AA/	8f#'/J	.	.	.	.	.	.	.	.	.	.	.
8F#L 8D 8AA/	(8f#/L	.	.	.	.	.	.	.	.	.	.	.
8F# 8D 8AA/	8d/)	.	.	.	.	.	.	.	.	.	.	.
8F#J 8D 8AA/	8d'/J	.	.	.	.	.	.	.	.	.	.	.
=155	=155	=155	=155	=155	=155	=155	=155	=155	=155	=155	=155	=155
*tremolo	*	*	*	*	*	*	*	*	*	*	*	*
16C#LL 16AA/	8A/L	.	.	2.r	.	2.r	.	.	2.r	2.r	.	.
16E/	.	.	.	.	.	.	.	.	.	.	.	.
16C# 16AA/	8A/	.	.	.	.	.	.	.	.	.	.	.
16E/	.	.	.	.	.	.	.	.	.	.	.	.
16C# 16AA/	8c#/J	.	.	.	.	.	.	.	.	.	.	.
16E/	.	.	.	.	.	.	.	.	.	.	.	.
16C# 16AA/	8e/L	.	.	.	.	.	.	.	.	.	.	.
16E/	.	.	.	.	.	.	.	.	.	.	.	.
16C# 16AA/	8c#/	.	.	.	.	.	.	.	.	.	.	.
16E/	.	.	.	.	.	.	.	.	.	.	.	.
16C# 16AA/	8e/J	.	.	.	.	.	.	.	.	.	.	.
16E/JJ	.	.	.	.	.	.	.	.	.	.	.	.
=156	=156	=156	=156	=156	=156	=156	=156	=156	=156	=156	=156	=156
16C#LL 16AA/	8a/L	.	.	2.r	.	2.r	.	.	2.r	2.r	.	.
16E/	.	.	.	.	.	.	.	.	.	.	.	.
16C# 16AA/	8e/	.	.	.	.	.	.	.	.	.	.	.
16E/	.	.	.	.	.	.	.	.	.	.	.	.
16C# 16AA/	8a/J	.	.	.	.	.	.	.	.	.	.	.
16E/	.	.	.	.	.	.	.	.	.	.	.	.
16C# 16AA/	8cc#\L	.	.	.	.	.	.	.	.	.	.	.
16E/	.	.	.	.	.	.	.	.	.	.	.	.
16C# 16AA/	8a\	.	.	.	.	.	.	.	.	.	.	.
16E/	.	.	.	.	.	.	.	.	.	.	.	.
16C# 16AA/	8cc#\J	.	.	.	.	.	.	.	.	.	.	.
16E/JJ	.	.	.	.	.	.	.	.	.	.	.	.
=157	=157	=157	=157	=157	=157	=157	=157	=157	=157	=157	=157	=157
16C#LL 16AA/	8ee\L	.	.	2.r	.	2.r	.	.	2.r	2.r	.	.
16E/	.	.	.	.	.	.	.	.	.	.	.	.
16C# 16AA/	8cc#\	.	.	.	.	.	.	.	.	.	.	.
16E/	.	.	.	.	.	.	.	.	.	.	.	.
16C# 16AA/	8ee\J	.	.	.	.	.	.	.	.	.	.	.
16E/	.	.	.	.	.	.	.	.	.	.	.	.
16C# 16AA/	8aa\L	.	.	.	.	.	.	.	.	.	.	.
16E/	.	.	.	.	.	.	.	.	.	.	.	.
16C# 16AA/	8ee\	.	.	.	.	.	.	.	.	.	.	.
16E/	.	.	.	.	.	.	.	.	.	.	.	.
16C# 16AA/	8aa\J	.	.	.	.	.	.	.	.	.	.	.
16E/JJ	.	.	.	.	.	.	.	.	.	.	.	.
*Xtremolo	*	*	*	*	*	*	*	*	*	*	*	*
=158	=158	=158	=158	=158	=158	=158	=158	=158	=158	=158	=158	=158
*	*	*	*^	*	*	*	*	*	*	*	*	*
4C# 4AA/	4cc#\	.	.	.	2.r	.	2.r	.	.	2.r	2.r	.	.
8r	8r	.	.	.	.	.	.	.	.	.	.	.	.
*	*8va	*	*	*	*	*	*	*	*	*	*	*	*
!	!LO:SIC:v:s=4aaa 4ccc# 4aa 4ee\	!	!	!LO:DY:rj:b=2	!	!	!	!	!	!	!	!	!
4AA 4AAA/	4aaa 4ccc# 4aa 4ff#\	.	sf	sf	.	.	.	.	.	.	.	.	.
*	*X8va	*	*	*	*	*	*	*	*	*	*	*	*
8r;	8r;	.	.	.	.	.	.	.	.	.	.	.	.
*	*	*	*v	*v	*	*	*	*	*	*	*	*	*
!!LO:PB:g=original
==159	==159	==159	==159	==159	==159	==159	==159	==159	==159	==159	==159	==159
*M2/4	*M2/4	*	*	*M2/4	*	*M2/4	*	*	*M2/4	*M2/4	*	*
!	!	!	!	!	!	!	!	!	!	!LO:TX:a:B:t=CORO.:problem:w pionie wzdłuż akolady	!	!
!	!	!	!	!	!	!	!	!LO:DY:b:rj	!	!LO:TX:a:B:t=Vivace.	!	!LO:DY:b:rj
8r	8r	.	.	16d\	.	16d\	Przy	f	16f#/	16a/	Przy	f
.	.	.	.	16d\	.	16d\	go-	.	16f#/	16a/	go-	.
=160	=160	=160	=160	=160	=160	=160	=160	=160	=160	=160	=160	=160
8r	8r	.	.	8d\	.	8d\	-do-	.	8f#/	8a/	-do-	.
!	!	!	!LO:DY:b:rj	!	!	!	!	!	!	!	!	!
16dLL 16A 16D\	16ddLL 16a 16f#/	.	f	8d\	.	8d\	-wej	.	8f#/	8a/	-wej	.
16dJJ 16A 16D\	16ddJJ 16a 16f#/	.	.	.	.	.	.	.	.	.	.	.
8d 8A 8D\	8dd 8a 8f#/	.	.	8r	.	8r	.	.	8r	8r	.	.
8r	8r	.	.	16d\	.	16f#\	dziś	.	16a/	16dd\	dziś	.
.	.	.	.	16d\	.	16f#\	za-	.	16a/	16dd\	za-	.
=161	=161	=161	=161	=161	=161	=161	=161	=161	=161	=161	=161	=161
8r	8r	.	.	8d\	.	8f#\	-ba-	.	8a/	8dd\	-ba-	.
16dLL 16A 16D\	16ff#LL 16dd 16a\	.	.	8D\	.	8f#\	-wie	.	8a/	8dd\	-wie	.
16dJJ 16A 16D\	16ff#JJ 16dd 16a\	.	.	.	.	.	.	.	.	.	.	.
8d 8A 8D\	8ff# 8dd 8a\	.	.	8r	.	8r	.	.	8r	8r	.	.
*	*8va	*	*	*	*	*	*	*	*	*	*	*
8r	16ddd\LL	.	.	16d\	.	16f#\	brat-	.	16a/	16dd\	brat-	.
.	16eee\JJ	.	.	16d\	.	16f#\	-nich	.	16a/	16ee\	-nich	.
=162	=162	=162	=162	=162	=162	=162	=162	=162	=162	=162	=162	=162
4d 4A 4F# 4D\	8.fff#\L	.	.	8.d\	.	8.f#\	zy-	.	8.a/	8.ff#\	zy-	.
.	16fff#\Jk	.	.	16D\	.	16d\	-czeń	.	16a/	16ff#\	-czeń	.
4d 4A 4F# 4D\	16ggg\LL	.	.	8D\	.	8d\	wznieś-	.	8a/	8ff#\	wznieś-	.
.	16fff#\	.	.	.	.	.	.	.	.	.	.	.
.	16eee\	.	.	8D\	.	8d\	-my	.	8a/	8ff#\	-my	.
.	16ddd\JJ	.	.	.	.	.	.	.	.	.	.	.
=163	=163	=163	=163	=163	=163	=163	=163	=163	=163	=163	=163	=163
8AL 8E 8C# 8AA\	8eee\L	.	.	4A\	.	4c#\	głos	.	4a/	4ee\	głos	.
8AJ 8E 8C# 8AA\	8aaaJ 8eee 8ccc# 8aa\	.	sf	.	.	.	.	.	.	.	.	.
*	*X8va	*	*	*	*	*	*	*	*	*	*	*
4r	4r	.	.	4r	.	4r	.	.	4r	4r	.	.
!!LO:LB:g=original
=164	=164	=164	=164	=164	=164	=164	=164	=164	=164	=164	=164	=164
4.F# 4.C# 4.AA#X 4.FF#/	4.fff# 4.ff#^<\	.	.	4.F#\	.	4.c#\	Zyj-	.	4.a#X/	4.ff#\	Zyj-	.
8F# 8C# 8AA# 8FF#/	8eee 8ee\	.	.	8F#\	.	8c#\	-cie	.	8a#/	8ee\	-cie	.
=165	=165	=165	=165	=165	=165	=165	=165	=165	=165	=165	=165	=165
4.B 4.F# 4.D 4.BB\	4.ddd 4.dd^<\	.	.	4.B\	.	4.d\	w zdro-	.	4.b\	4.dd\	w zdro-	.
8G 8GG/	8eee 8ee\	.	.	8G\	.	8g\	-wiu	.	8b\	8ee\	-wiu	.
=166	=166	=166	=166	=166	=166	=166	=166	=166	=166	=166	=166	=166
8F#L 8D 8AA/	8aaL 8a\	.	.	8A\	.	8f#\	w szczę-	.	8a/	8dd\	w szczę-	.
8F#J 8D 8AA/	8aaJ 8a\	.	.	8A\	.	8f#\	-ściu	.	8a/	8dd\	-ściu	.
8GL 8E 8AA/	8aaL 8a\	.	.	4A\	.	4e\	w sła-	.	4a/	4cc#\	w sła-	.
8GJ 8E 8AA/	16bb\L	.	.	.	.	.	.	.	.	.	.	.
.	16ccc#\JJ	.	.	.	.	.	.	.	.	.	.	.
=167	=167	=167	=167	=167	=167	=167	=167	=167	=167	=167	=167	=167
*	*8va	*	*	*	*	*	*	*	*	*	*	*
4F# 4D\	(16ddd\LL	.	<	4D\	.	4f#\	-wie	.	4a/	4dd\	-wie	.
.	16eee\	.	.	.	.	.	.	.	.	.	.	.
.	16fff#\	.	.	.	.	.	.	.	.	.	.	.
.	16ggg\JJ	.	[[	.	.	.	.	.	.	.	.	.
8r	4aaa\)	.	.	4r	.	4r	.	.	4r	4r	.	.
!	!	!	!LO:DY:rj:b=2	!	!	!	!	!	!	!	!	!
8d 8D\	.	.	sf	.	.	.	.	.	.	.	.	.
*	*X8va	*	*	*	*	*	*	*	*	*	*	*
=168	=168	=168	=168	=168	=168	=168	=168	=168	=168	=168	=168	=168
4.F# 4.C# 4.AA#X 4.FF#/	4.fff# 4.ff#^<\	.	.	4.F#\	.	4.c#\	Niech	.	4.a#X/	4.ff#\	Niech	.
8F# 8C# 8AA# 8FF#/	8eee 8ee\	.	.	8F#\	.	8c#\	wam	.	8a#/	8ee\	wam	.
=169	=169	=169	=169	=169	=169	=169	=169	=169	=169	=169	=169	=169
4.B 4.F# 4.D 4.BB\	4.ddd 4.dd^<\	.	.	4.B\	.	4.d\	sprzy-	.	4.b\	4.dd\	sprzy-	.
8G 8GG/	8eee 8ee\	.	.	8G\	.	8g\	-ja	.	8b\	8ee\	-ja	.
=170	=170	=170	=170	=170	=170	=170	=170	=170	=170	=170	=170	=170
8F#L 8D 8AA/	8aaL 8a\	.	.	4A\	.	4f#\	wier-	.	4a/	4dd\	wier-	.
8F#J 8D 8AA/	8aaJ 8a\	.	.	.	.	.	.	.	.	.	.	.
4G 4E 4AA/	8aaL 8a\	.	.	4A\	.	4e\	-nie	.	4g/	4cc#\	-nie	.
.	16bbL 16b\	.	.	.	.	.	.	.	.	.	.	.
.	16ccc#JJ 16cc#\	.	.	.	.	.	.	.	.	.	.	.
=171	=171	=171	=171	=171	=171	=171	=171	=171	=171	=171	=171	=171
!	!	!	!	!	!	!	!	!LO:DY:b:rj	!	!	!	!LO:DY:b:rj
8F# 8D\	8dddL 8dd\	.	ff	4D\	.	4d\	los	ff	4f#/	4dd\	los	ff
16dLL 16D\	16ff#L 16dd 16a\	.	.	.	.	.	.	.	.	.	.	.
16dJJ 16D\	16ff#JJ 16dd 16a\	.	.	.	.	.	.	.	.	.	.	.
8dL 8D\	8ff#L 8dd 8a\	.	.	8d\	.	8f# 8d\	Zyj-	.	8a/	8ff#\	Zyj-	.
8dJ 8D\	8ff#J 8dd 8a\	.	.	8d\	.	8f# 8d\	-cie	.	8a/	8ff#\	-cie	.
!!LO:PB:g=original
=172	=172	=172	=172	=172	=172	=172	=172	=172	=172	=172	=172	=172
8dL 8D\	8ff#L 8dd 8a\	.	.	8d\	.	8f# 8d\	w zdro-	.	8a/	8ff#\	w zdro-	.
8AJ 8AA\	8ff# 8dd 8a\	.	.	8A\	.	8f# 8d\	-wiu	.	8a/	8ff#\	-wiu	.
8F#L 8FF#/	8ff# 8dd 8a\	.	.	8F#\	.	8f# 8d\	w szczę-	.	8a/	8ff#\	w szczę-	.
8DJ 8DD/	8ff#J 8dd 8a\	.	.	8D\	.	8f# 8d\	-ściu	.	8a/	8ff#\	-ściu	.
=173	=173	=173	=173	=173	=173	=173	=173	=173	=173	=173	=173	=173
2AA 2AAA/	8aaL 8ff# 8dd 8a\	.	.	[2A\	.	(2f# 2d\	w sła-	.	[2a/	(2ff#\	w sła-	.
.	16a\L	.	.	.	.	.	.	.	.	.	.	.
.	16b\JJ	.	.	.	.	.	.	.	.	.	.	.
.	16cc#\LL	.	.	.	.	.	.	.	.	.	.	.
.	16dd\	.	.	.	.	.	.	.	.	.	.	.
.	16ee\	.	.	.	.	.	.	.	.	.	.	.
.	16ff#\JJ	.	.	.	.	.	.	.	.	.	.	.
=174	=174	=174	=174	=174	=174	=174	=174	=174	=174	=174	=174	=174
2A 2E 2C# 2AA\	16gg\LL	.	.	2A\]	.	2e 2c#\)	.	.	2a/]	2ee\)	.	.
.	16ff#\	.	.	.	.	.	.	.	.	.	.	.
.	16ee\	.	.	.	.	.	.	.	.	.	.	.
.	16ff#\JJ	.	.	.	.	.	.	.	.	.	.	.
.	16gg\LL	.	.	.	.	.	.	.	.	.	.	.
.	16aa\	.	.	.	.	.	.	.	.	.	.	.
.	16bb\	.	.	.	.	.	.	.	.	.	.	.
.	16ccc#\JJ	.	.	.	.	.	.	.	.	.	.	.
=175	=175	=175	=175	=175	=175	=175	=175	=175	=175	=175	=175	=175
!	!	!	!LO:DY:b:rj	!	!	!	!	!	!	!	!	!
8AL 8F# 8D\	8ddd\L	.	ff	4D\	.	4f# 4d\	-wie	.	4a/	4dd\	-wie	.
16dL 16D\	16ff#L 16dd 16a\	.	.	.	.	.	.	.	.	.	.	.
16dJJ 16D\	16ff#JJ 16dd 16a\	.	.	.	.	.	.	.	.	.	.	.
8dL 8D\	8ff#L 8dd 8a\	.	.	8d\	niech	8f# 8d\	niech	.	8a/	8ff# 8dd\	niech	.
8dJ 8D\	8ff#J 8dd 8a\	.	.	8d\	wam	8f# 8d\	wam	.	8a/	8ff# 8dd\	wam	.
=176	=176	=176	=176	=176	=176	=176	=176	=176	=176	=176	=176	=176
8dL 8D\	8ff#L 8dd 8a\	.	.	8d\	sprzy-	4f# 4d\	sprzy-	.	4a/	4ff# 4dd\	sprzy-	.
8AJ 8AA\	8ff# 8dd 8a\	.	.	8A\	-ja	.	.	.	.	.	.	.
8F#L 8FF#/	8ff# 8dd 8a\	.	.	8F#\	wier-	4f# 4d\	-ja	.	4a/	4ff# 4dd\	-ja	.
8DJ 8DD/	8ff#J 8dd 8a\	.	.	8D\	-nie	.	.	.	.	.	.	.
=177	=177	=177	=177	=177	=177	=177	=177	=177	=177	=177	=177	=177
2AA 2AAA/	8aaL 8ff# 8dd 8a\	.	.	2A\	wier-	2f# 2d\	wier-	.	2a/	2ff# 2dd\	wier-	.
.	16a\L	.	.	.	.	.	.	.	.	.	.	.
.	16b\JJ	.	.	.	.	.	.	.	.	.	.	.
.	16cc#\LL	.	.	.	.	.	.	.	.	.	.	.
.	16dd\	.	.	.	.	.	.	.	.	.	.	.
.	16ee\	.	.	.	.	.	.	.	.	.	.	.
.	16ff#\JJ	.	.	.	.	.	.	.	.	.	.	.
=178	=178	=178	=178	=178	=178	=178	=178	=178	=178	=178	=178	=178
2A 2E 2C# 2AA\	16gg\LL	.	.	2A\	-nie	2e 2c#\	-nie	.	2a/	2ee\	-nie	.
.	16ff#\	.	.	.	.	.	.	.	.	.	.	.
.	16ee\	.	.	.	.	.	.	.	.	.	.	.
.	16ff#\JJ	.	.	.	.	.	.	.	.	.	.	.
.	16gg\LL	.	.	.	.	.	.	.	.	.	.	.
.	16aa\	.	.	.	.	.	.	.	.	.	.	.
.	16bb\	.	.	.	.	.	.	.	.	.	.	.
.	16ccc#\JJ	.	.	.	.	.	.	.	.	.	.	.
!!LO:LB:g=original
=179	=179	=179	=179	=179	=179	=179	=179	=179	=179	=179	=179	=179
!	!LO:TX:a:B:t=Più animato	!	!	!	!	!	!	!	!	!LO:TX:a:B:t=Più animato	!	!
4A 4F# 4D\	8ddd\L	.	.	4D\	.	4f# 4d\	los	.	4a/	4dd\	los	.
!	!	!	!LO:HP:a	!	!	!	!	!	!	!	!	!
.	(32d\LL	.	<	.	.	.	.	.	.	.	.	.
.	32e\	.	.	.	.	.	.	.	.	.	.	.
.	32f#\	.	.	.	.	.	.	.	.	.	.	.
.	32g\JJJ	.	.	.	.	.	.	.	.	.	.	.
4A 4E 4C# 4AA\	8a\L)	.	[	4A\	.	4e 4c#\	Vi-	.	4r	4r	.	.
.	32r	.	.	.	.	.	.	.	.	.	.	.
!	!	!	!LO:HP:a	!	!	!	!	!	!	!	!	!
.	(32a\LL	.	<	.	.	.	.	.	.	.	.	.
.	32b\	.	.	.	.	.	.	.	.	.	.	.
.	32cc#\JJJ	.	.	.	.	.	.	.	.	.	.	.
=180	=180	=180	=180	=180	=180	=180	=180	=180	=180	=180	=180	=180
4A 4F# 4D\	8dd\L)	.	[	4d\	.	4f# 4d\	-vat	.	[2a/	[2aa [2a\	vi-	.
!	!	!	!LO:HP:a	!	!	!	!	!	!	!	!	!
.	(32dd\LL	.	<	.	.	.	.	.	.	.	.	.
.	32ee\	.	.	.	.	.	.	.	.	.	.	.
.	32ff#\	.	.	.	.	.	.	.	.	.	.	.
.	32gg\JJJ	.	.	.	.	.	.	.	.	.	.	.
4A 4E 4C# 4AA\	8aa\L)	.	[	4A\	.	4e 4c#\	vi-	.	.	.	.	.
.	32r	.	.	.	.	.	.	.	.	.	.	.
!	!	!	!LO:HP:a	!	!	!	!	!	!	!	!	!
.	(32aa\LL	.	<	.	.	.	.	.	.	.	.	.
.	32bb\	.	.	.	.	.	.	.	.	.	.	.
.	32ccc#\JJJ	.	.	.	.	.	.	.	.	.	.	.
=181	=181	=181	=181	=181	=181	=181	=181	=181	=181	=181	=181	=181
4A 4F# 4D\	8ddd\L)	.	[	4d\	.	4f# 4d\	-vat	.	2a/_	2aa_ 2a\_	.	.
.	(32dd\LL	.	.	.	.	.	.	.	.	.	.	.
.	32ee\	.	.	.	.	.	.	.	.	.	.	.
.	32ff#\	.	.	.	.	.	.	.	.	.	.	.
.	32gg\JJJ	.	.	.	.	.	.	.	.	.	.	.
4A 4E 4C# 4AA\	8aa\L)	.	.	4A\	.	4e 4c#\	vi-	.	.	.	.	.
.	32r	.	.	.	.	.	.	.	.	.	.	.
.	(32aa\LL	.	.	.	.	.	.	.	.	.	.	.
.	32bb\	.	.	.	.	.	.	.	.	.	.	.
.	32ccc#\JJJ	.	.	.	.	.	.	.	.	.	.	.
=182	=182	=182	=182	=182	=182	=182	=182	=182	=182	=182	=182	=182
4A 4F# 4D\	8ddd\L)	.	.	4d\	.	4f# 4d\	-vat	.	2a/]	2aa] 2a\]	.	.
*	*8va	*	*	*	*	*	*	*	*	*	*	*
.	(32ddd\LL	.	.	.	.	.	.	.	.	.	.	.
.	32eee\	.	.	.	.	.	.	.	.	.	.	.
.	32fff#\	.	.	.	.	.	.	.	.	.	.	.
.	32ggg\JJJ	.	.	.	.	.	.	.	.	.	.	.
4A 4E 4C# 4AA\	8aaa\L)	.	.	4A\	.	4e 4c#\	vi-	.	.	.	.	.
.	32r	.	.	.	.	.	.	.	.	.	.	.
.	(32aaa\LL	.	.	.	.	.	.	.	.	.	.	.
.	32bbb\	.	.	.	.	.	.	.	.	.	.	.
.	32cccc#\JJJ	.	.	.	.	.	.	.	.	.	.	.
=183	=183	=183	=183	=183	=183	=183	=183	=183	=183	=183	=183	=183
*	*ped	*	*	*	*	*	*	*	*	*	*	*
4A 4F# 4D\	4dddd\)	.	.	4D\	.	4f# 4d\	-vat!	.	4a/	4dd\	-vat!	.
*	*X8va	*	*	*	*	*	*	*	*	*	*	*
4r	4r	.	.	4r	.	4r	.	.	4r	4r	.	.
=184	=184	=184	=184	=184	=184	=184	=184	=184	=184	=184	=184	=184
4d 4A 4F# 4D\	4ddd 4aa 4ff# 4dd\	.	ff	2r	.	2r	.	.	2r	2r	.	.
4r	4r	.	.	.	.	.	.	.	.	.	.	.
=185	=185	=185	=185	=185	=185	=185	=185	=185	=185	=185	=185	=185
4D 4DD/	4dd 4a 4f# 4d/	.	.	2r	.	2r	.	.	2r	2r	.	.
4r	4r	.	.	.	.	.	.	.	.	.	.	.
=186	=186	=186	=186	=186	=186	=186	=186	=186	=186	=186	=186	=186
4d 4A 4F# 4D\	4fff# 4ddd 4aa\	.	.	2r	.	2r	.	.	2r	2r	.	.
8.r	8.r	.	.	.	.	.	.	.	.	.	.	.
16D 16DD/	16d/	.	.	.	.	.	.	.	.	.	.	.
=187	=187	=187	=187	=187	=187	=187	=187	=187	=187	=187	=187	=187
*	*Xped	*	*	*	*	*	*	*	*	*	*	*
2D 2DD;/	2d;/	.	.	2r;	.	2r;	.	.	2r;	2r;	.	.
==	==	==	==	==	==	==	==	==	==	==	==	==
*-	*-	*-	*-	*-	*-	*-	*-	*-	*-	*-	*-	*-
!!!system-decoration: [s1,s2,s3,s4]{(s5,s6)}
!!!RDF**kern: > = above
!!!RDF**kern: < = below
!!!RDF**kern: N = linked
!!!ENC: Berenika Jozajtis
!!!END: 2022-09-17
!!!ENC: Katarzyna Serwa
!!!END: 2022-10-25
!!!YEC: Copyright 2022 Narodowy Instytut Fryderyka Chopina (https://polishscores.org)
!!!YEM: License CC-BY-4.0 (https://creativecommons.org/licenses/by/4.0)
